%
(Header)
(Generated by gcodetools from Inkscape.)
(Using default header. To add your own header create file "header" in the output dir.)
M3
(Header end.)
G21 (All units in mm)

(Start cutting path id: path250)
(Change tool to Default tool)

G00 Z5.000000
G00 X76.774172 Y128.945351

G01 Z-0.125000 F100.0(Penetrate)
G01 X76.751869 Y128.933150 Z-0.125000 F400.000000
G03 X75.589253 Y127.135844 Z-0.125000 I160.524512 J-105.112535
G01 X74.433316 Y125.326786 Z-0.125000
G01 X74.086422 Y125.615490 Z-0.125000
G03 X72.421670 Y126.635999 Z-0.125000 I-4.338843 J-5.209827
G03 X70.431461 Y127.184149 Z-0.125000 I-2.988020 J-6.961755
G02 X68.358150 Y127.732016 Z-0.125000 I1.121564 J8.441347
G02 X67.122717 Y128.523418 Z-0.125000 I1.495161 J3.694049
G03 X66.662681 Y128.907844 Z-0.125000 I-3.496792 J-3.717077
G03 X66.590246 Y128.917717 Z-0.125000 I-0.045213 J-0.061066
G03 X66.531996 Y128.866427 Z-0.125000 I0.039954 J-0.104097
G03 X66.432301 Y128.624071 Z-0.125000 I1.121209 J-0.602903
G02 X65.862306 Y127.605563 Z-0.125000 I-2.529621 J0.746921
G02 X63.913505 Y125.828254 Z-0.125000 I-10.006068 J9.014475
G03 X62.012172 Y124.103379 Z-0.125000 I8.057809 J-10.792502
G03 X61.271812 Y122.926841 Z-0.125000 I2.920243 J-2.658831
G02 X61.144956 Y122.619646 Z-0.125000 I-22.385278 J9.064261
G02 X61.134089 Y122.599944 Z-0.125000 I-0.098457 J0.041453
G01 X61.118217 Y122.596863 Z-0.125000
G02 X59.203259 Y123.860802 Z-0.125000 I127.493368 J195.244212
G03 X57.281689 Y125.133012 Z-0.125000 I-182.486255 J-273.543385
G03 X57.214014 Y125.167718 Z-0.125000 I-0.194726 J-0.296369
G01 X57.170526 Y125.144577 Z-0.125000
G03 X56.690753 Y122.895163 Z-0.125000 I69.358053 J-15.969125
G02 X56.232345 Y120.598578 Z-0.125000 I-378.860664 J74.428066
G02 X56.220066 Y120.573404 Z-0.125000 I-0.054670 J0.011085
G01 X56.197352 Y120.566810 Z-0.125000
G02 X55.895640 Y120.672259 Z-0.125000 I1.158314 J3.798555
G03 X55.064217 Y120.897931 Z-0.125000 I-1.424182 J-3.602585
G03 X53.798103 Y120.997134 Z-0.125000 I-1.289445 J-8.327710
G03 X52.760322 Y120.963424 Z-0.125000 I-0.040897 J-14.731835
G03 X51.812903 Y120.862556 Z-0.125000 I0.840880 J-12.397994
G02 X49.143151 Y120.762396 Z-0.125000 I-1.801507 J12.387910
G02 X48.073464 Y121.122501 Z-0.125000 I0.154986 J2.229184
G03 X47.909450 Y121.082861 Z-0.125000 I-0.063408 J-0.096772
G03 X47.782064 Y120.609351 Z-0.125000 I0.849536 J-0.482437
G02 X47.491513 Y119.179708 Z-0.125000 I-3.835220 J0.035097
G02 X46.399658 Y117.263537 Z-0.125000 I-8.105121 J3.349228
G03 X45.379224 Y115.437942 Z-0.125000 I6.245606 J-4.689028
G03 X44.893683 Y113.442542 Z-0.125000 I7.009917 J-2.762498
G02 X44.832330 Y113.140305 Z-0.125000 I-1.563982 J0.160138
G01 X44.791457 Y113.110029 Z-0.125000
G02 X44.724130 Y113.117007 Z-0.125000 I-0.000979 J0.318833
G02 X42.713916 Y113.552183 Z-0.125000 I60.003199 J282.034024
G03 X40.710591 Y113.973917 Z-0.125000 I-23.736652 J-107.784950
G01 X40.671874 Y113.962209 Z-0.125000
G01 X40.660165 Y113.923484 Z-0.125000
G03 X41.077407 Y111.944206 Z-0.125000 I105.402224 J21.185662
G02 X41.506218 Y109.957752 Z-0.125000 I-217.373519 J-47.963477
G02 X41.515516 Y109.868687 Z-0.125000 I-0.421922 J-0.089066
G02 X41.474353 Y109.815229 Z-0.125000 I-0.055295 J0.000000
G02 X40.905757 Y109.707597 Z-0.125000 I-1.037186 J3.923550
G03 X39.132558 Y109.240714 Z-0.125000 I0.749389 J-6.446842
G03 X37.324936 Y108.197128 Z-0.125000 I3.269395 J-7.750311
G02 X35.477547 Y107.148228 Z-0.125000 I-4.886295 J6.454735
G02 X34.019339 Y106.858309 Z-0.125000 I-1.488820 J3.676179
G03 X33.510633 Y106.821799 Z-0.125000 I0.030745 J-3.990660
G03 X33.460580 Y106.782145 Z-0.125000 I0.008474 J-0.062113
G03 X33.458356 Y106.711288 Z-0.125000 I0.100638 J-0.038622
G03 X33.571569 Y106.427613 Z-0.125000 I1.918484 J0.601221
G02 X33.894346 Y105.189583 Z-0.125000 I-2.881172 J-1.412267
G02 X33.769280 Y102.792646 Z-0.125000 I-11.277540 J-0.613297
G03 X33.593525 Y100.900840 Z-0.125000 I14.231310 J-2.276201
G03 X33.686601 Y99.690827 Z-0.125000 I5.874270 J-0.156731
G03 X33.786095 Y99.252897 Z-0.125000 I5.113188 J0.931413
G03 X33.913968 Y98.858193 Z-0.125000 I4.288270 J1.171215
G02 X34.040793 Y98.472874 Z-0.125000 I-4.519544 J-1.701106
G01 X34.032371 Y98.440528 Z-0.125000
G02 X33.998958 Y98.422434 Z-0.125000 I-0.047093 J0.047065
G02 X31.739819 Y97.959056 Z-0.125000 I-51.106777 J243.425693
G03 X29.479622 Y97.496722 Z-0.125000 I55.247967 J-275.844975
G03 X29.450861 Y97.481178 Z-0.125000 I0.011701 J-0.056030
G01 X29.448076 Y97.454930 Z-0.125000
G03 X30.706103 Y95.539339 Z-0.125000 I133.194102 J86.101743
G02 X31.977343 Y93.617073 Z-0.125000 I-238.288406 J-158.967214
G02 X32.017063 Y93.539536 Z-0.125000 I-0.341568 J-0.223917
G02 X32.012540 Y93.482381 Z-0.125000 I-0.062140 J-0.023838
G01 X31.969883 Y93.457755 Z-0.125000
G03 X31.647233 Y93.377768 Z-0.125000 I0.000401 J-0.692363
G03 X30.767664 Y92.823730 Z-0.125000 I3.165775 J-6.001072
G03 X29.959150 Y92.102643 Z-0.125000 I3.612361 J-4.864140
G03 X28.779317 Y90.701930 Z-0.125000 I12.622828 J-11.829570
G02 X27.074553 Y88.842000 Z-0.125000 I-10.627194 J8.029381
G02 X26.023042 Y88.215037 Z-0.125000 I-2.101421 J2.329142
G03 X25.758353 Y88.092856 Z-0.125000 I0.535854 J-1.508657
G03 X25.706704 Y88.032379 Z-0.125000 I0.059567 J-0.103165
G03 X25.715892 Y87.961195 Z-0.125000 I0.070560 J-0.027078
G03 X25.908684 Y87.751314 Z-0.125000 I0.967745 J0.695464
G02 X26.599943 Y86.930447 Z-0.125000 I-2.150735 J-2.512641
G02 X27.175609 Y85.623222 Z-0.125000 I-5.037716 J-2.998840
G02 X27.275925 Y85.216427 Z-0.125000 I-3.940584 J-1.187514
G02 X27.437577 Y84.267327 Z-0.125000 I-21.339477 J-4.122881
G03 X27.604771 Y83.319906 Z-0.125000 I16.922891 J2.497965
G03 X27.725831 Y82.865375 Z-0.125000 I4.008649 J0.824278
G03 X28.314557 Y81.533324 Z-0.125000 I7.045740 J2.317883
G03 X29.047351 Y80.527439 Z-0.125000 I4.716166 J2.665890
G02 X29.245973 Y80.277567 Z-0.125000 I-1.607929 J-1.482014
G02 X29.252700 Y80.226378 Z-0.125000 I-0.047285 J-0.032250
G02 X29.217788 Y80.181576 Z-0.125000 I-0.084281 J0.029671
G02 X27.498687 Y79.063477 Z-0.125000 I-64.894034 J97.895351
G03 X25.768361 Y77.952101 Z-0.125000 I183.261915 J-287.227336
G03 X25.717039 Y77.911585 Z-0.125000 I0.188464 J-0.291485
G01 X25.720367 Y77.871160 Z-0.125000
G03 X27.465661 Y76.719475 Z-0.125000 I39.146911 J57.425989
G02 X29.235229 Y75.558485 Z-0.125000 I-45.927723 J-71.931634
G02 X29.261463 Y75.509168 Z-0.125000 I-0.033238 J-0.049317
G02 X29.242798 Y75.453403 Z-0.125000 I-0.092634 J0.000000
G02 X29.087342 Y75.278430 Z-0.125000 I-1.163457 J0.877136
G03 X28.675087 Y74.787092 Z-0.125000 I2.044513 J-2.134060
G03 X28.112266 Y73.820085 Z-0.125000 I7.472013 J-4.996175
G03 X27.734129 Y72.855292 Z-0.125000 I5.080446 J-2.547707
G03 X27.437577 Y71.493382 Z-0.125000 I9.873465 J-2.863167
G02 X27.275925 Y70.544282 Z-0.125000 I-21.500953 J3.173751
G02 X27.175609 Y70.137489 Z-0.125000 I-4.040833 J0.780708
G02 X26.599940 Y68.830255 Z-0.125000 I-5.613345 J1.691588
G02 X25.908684 Y68.009397 Z-0.125000 I-2.841929 J1.691740
G03 X25.715890 Y67.799511 Z-0.125000 I0.774995 J-0.905378
G03 X25.706704 Y67.728332 Z-0.125000 I0.061368 J-0.044102
G03 X25.758355 Y67.667852 Z-0.125000 I0.111216 J0.042684
G03 X26.023042 Y67.545673 Z-0.125000 I0.800604 J1.386624
G02 X27.074553 Y66.918709 Z-0.125000 I-1.049891 J-2.956076
G02 X28.779317 Y65.058780 Z-0.125000 I-8.922587 J-9.889450
G03 X29.959147 Y63.657919 Z-0.125000 I13.817037 J10.439693
G03 X30.767664 Y62.936755 Z-0.125000 I4.418877 J4.140310
G03 X31.647235 Y62.382814 Z-0.125000 I4.040778 J5.440839
G03 X31.969883 Y62.302955 Z-0.125000 I0.322648 J0.611855
G01 X32.012593 Y62.278233 Z-0.125000
G02 X32.017063 Y62.220950 Z-0.125000 I-0.057951 J-0.033338
G02 X31.977343 Y62.143422 Z-0.125000 I-0.381079 J0.146303
G02 X30.706103 Y60.221370 Z-0.125000 I-242.641105 J159.100693
G03 X29.448074 Y58.305558 Z-0.125000 I130.997541 J-87.391218
G01 X29.450861 Y58.279307 Z-0.125000
G03 X29.479622 Y58.263768 Z-0.125000 I0.040447 J0.040475
G03 X31.739819 Y57.801654 Z-0.125000 I58.781633 J281.742406
G02 X33.998959 Y57.338053 Z-0.125000 I-47.855052 J-238.935442
G02 X34.032371 Y57.319957 Z-0.125000 I-0.013698 J-0.065185
G01 X34.040784 Y57.287626 Z-0.125000
G02 X33.913968 Y56.902518 Z-0.125000 I-4.658637 J1.320646
G03 X33.786096 Y56.507816 Z-0.125000 I4.160572 J-1.565976
G03 X33.686601 Y56.069884 Z-0.125000 I5.013419 J-1.369281
G03 X33.593525 Y54.859876 Z-0.125000 I5.781140 J-1.053278
G03 X33.769280 Y52.968063 Z-0.125000 I14.407174 J0.384397
G02 X33.892907 Y50.410350 Z-0.125000 I-11.485892 J-1.837014
G02 X33.538766 Y49.255360 Z-0.125000 I-2.583580 J0.160384
G03 X33.581304 Y49.047826 Z-0.125000 I0.136011 J-0.080249
G03 X34.019339 Y48.902401 Z-0.125000 I0.443790 J0.604326
G02 X35.477549 Y48.612394 Z-0.125000 I-0.030603 J-3.964968
G02 X37.324936 Y47.563357 Z-0.125000 I-3.041160 J-7.506748
G03 X39.132558 Y46.519771 Z-0.125000 I5.077002 J6.706697
G03 X40.905757 Y46.052888 Z-0.125000 I2.522589 J5.979966
G02 X41.474349 Y45.945450 Z-0.125000 I-0.470711 J-4.049429
G02 X41.515516 Y45.892023 Z-0.125000 I-0.014086 J-0.053427
G02 X41.506218 Y45.802961 Z-0.125000 I-0.431202 J0.000000
G02 X41.077407 Y43.816504 Z-0.125000 I-217.782927 J45.972789
G03 X40.659503 Y41.836883 Z-0.125000 I108.292755 J-23.894827
G01 X40.670750 Y41.799625 Z-0.125000
G01 X40.708024 Y41.788357 Z-0.125000
G03 X42.713466 Y42.209426 Z-0.125000 I-22.690250 J113.053973
G02 X44.725846 Y42.643480 Z-0.125000 I64.604321 J-294.639401
G02 X44.792356 Y42.650457 Z-0.125000 I0.066510 J-0.313544
G01 X44.832663 Y42.620613 Z-0.125000
G02 X44.893683 Y42.318167 Z-0.125000 I-1.522833 J-0.464616
G03 X45.379224 Y40.322768 Z-0.125000 I7.495462 J0.767100
G03 X46.399658 Y38.497172 Z-0.125000 I7.266039 J2.863431
G02 X47.491517 Y36.581005 Z-0.125000 I-7.013366 J-5.265478
G02 X47.782064 Y35.151359 Z-0.125000 I-3.544532 J-1.464702
G03 X47.909429 Y34.677658 Z-0.125000 I0.977895 J0.008956
G03 X48.073464 Y34.637984 Z-0.125000 I0.100626 J0.057103
G02 X49.143153 Y34.998092 Z-0.125000 I1.224668 J-1.869050
G02 X51.812903 Y34.897929 Z-0.125000 I0.868227 J-12.488181
G03 X52.760322 Y34.797055 Z-0.125000 I1.788682 J12.299891
G03 X53.798103 Y34.763351 Z-0.125000 I0.996488 J14.688890
G03 X55.064217 Y34.862686 Z-0.125000 I-0.023299 J8.415518
G03 X55.895640 Y35.088451 Z-0.125000 I-0.594103 J3.831719
G02 X56.197260 Y35.193675 Z-0.125000 I1.439168 J-3.640411
G01 X56.220066 Y35.187081 Z-0.125000
G02 X56.232459 Y35.161841 Z-0.125000 I-0.041896 J-0.036234
G02 X56.690080 Y32.865098 Z-0.125000 I-367.010070 J-74.319880
G03 X57.169123 Y30.615958 Z-0.125000 I69.173930 J13.557725
G01 X57.213115 Y30.592542 Z-0.125000
G03 X57.281606 Y30.627666 Z-0.125000 I-0.128583 J0.335075
G03 X59.203259 Y31.899907 Z-0.125000 I-180.135156 J274.171896
G02 X61.118206 Y33.163840 Z-0.125000 I129.336394 J-193.871181
G01 X61.134089 Y33.160766 Z-0.125000
G02 X61.144957 Y33.141051 Z-0.125000 I-0.087438 J-0.061049
G02 X61.271812 Y32.833644 Z-0.125000 I-23.084254 J-9.705936
G03 X62.012179 Y31.657196 Z-0.125000 I3.659647 J1.481912
G03 X63.913505 Y29.932457 Z-0.125000 I9.962112 J9.071714
G02 X65.834450 Y28.185715 Z-0.125000 I-8.051763 J-10.784400
G02 X66.426235 Y27.159780 Z-0.125000 I-2.075342 J-1.880756
G03 X66.524702 Y26.910724 Z-0.125000 I1.923819 J0.616605
G03 X66.569800 Y26.857147 Z-0.125000 I0.124540 J0.059062
G03 X66.650725 Y26.856660 Z-0.125000 I0.040813 J0.057883
G03 X67.123167 Y27.237517 Z-0.125000 I-2.251689 J3.276606
G02 X68.358094 Y28.028534 Z-0.125000 I2.728882 J-2.900812
G02 X70.431461 Y28.576336 Z-0.125000 I3.195253 J-7.896038
G03 X72.507299 Y29.155641 Z-0.125000 I-1.016670 J7.651918
G03 X74.170450 Y30.211049 Z-0.125000 I-2.584625 J5.911077
G01 X74.427699 Y30.436170 Z-0.125000
G01 X74.953431 Y29.621510 Z-0.125000
G02 X75.477631 Y28.805940 Z-0.125000 I-213.747426 J-137.960522
G02 X76.112289 Y27.810880 Z-0.125000 I-311.921156 J-199.645712
G03 X76.751847 Y26.827100 Z-0.125000 I48.050058 J30.537713
G01 X76.774172 Y26.815134 Z-0.125000
G01 X76.796476 Y26.827294 Z-0.125000
G03 X77.959092 Y28.624642 Z-0.125000 I-160.864343 J105.329963
G01 X79.115253 Y30.433924 Z-0.125000
G01 X79.461922 Y30.144995 Z-0.125000
G03 X81.126771 Y29.124472 Z-0.125000 I4.338396 J5.209271
G03 X83.117108 Y28.576336 Z-0.125000 I2.988321 J6.963268
G02 X85.190283 Y28.028456 Z-0.125000 I-1.121317 J-8.439432
G02 X86.425626 Y27.237068 Z-0.125000 I-1.495385 J-3.694142
G03 X86.885666 Y26.852638 Z-0.125000 I3.497572 J3.717996
G03 X86.958099 Y26.842768 Z-0.125000 I0.045209 J0.061059
G03 X87.016371 Y26.894109 Z-0.125000 I-0.039931 J0.104062
G03 X87.116044 Y27.136639 Z-0.125000 I-1.125965 J0.604483
G02 X87.686093 Y28.155154 Z-0.125000 I2.529109 J-0.746727
G02 X89.635064 Y29.932457 Z-0.125000 I10.010365 J-9.019997
G03 X91.536245 Y31.657203 Z-0.125000 I-8.057082 J10.791494
G03 X92.276531 Y32.833644 Z-0.125000 I-2.919953 J2.658543
G02 X92.403388 Y33.141051 Z-0.125000 I23.200709 J-9.394318
G02 X92.414256 Y33.160766 Z-0.125000 I0.098308 J-0.041335
G01 X92.430139 Y33.163840 Z-0.125000
G02 X94.345086 Y31.899907 Z-0.125000 I-127.421447 J-195.135113
G03 X96.266737 Y30.627654 Z-0.125000 I182.299498 J273.263440
G03 X96.333881 Y30.593216 Z-0.125000 I0.193291 J0.294189
G01 X96.377058 Y30.616184 Z-0.125000
G03 X96.858041 Y32.865547 Z-0.125000 I-69.776674 J16.096497
G02 X97.317366 Y35.162169 Z-0.125000 I410.353771 J-80.876749
G02 X97.329177 Y35.187081 Z-0.125000 I0.056258 J-0.011415
G01 X97.351200 Y35.193764 Z-0.125000
G02 X97.652930 Y35.088451 Z-0.125000 I-1.144314 J-3.763442
G03 X98.484268 Y34.862692 Z-0.125000 I1.425625 J3.606198
G03 X99.750242 Y34.763351 Z-0.125000 I1.289174 J8.312586
G03 X100.788023 Y34.797062 Z-0.125000 I0.040897 J14.731681
G03 X101.735442 Y34.897929 Z-0.125000 I-0.840914 J12.398362
G02 X104.405192 Y34.998092 Z-0.125000 I1.801522 J-12.388019
G02 X105.474881 Y34.637984 Z-0.125000 I-0.154980 J-2.229157
G03 X105.639004 Y34.677633 Z-0.125000 I0.063455 J0.096846
G03 X105.766505 Y35.151359 Z-0.125000 I-0.849475 J0.482655
G02 X106.056973 Y36.581003 Z-0.125000 I3.836284 J-0.035107
G02 X107.148686 Y38.497172 Z-0.125000 I8.101643 J-3.346729
G03 X108.169239 Y40.322768 Z-0.125000 I-6.247775 J4.690713
G03 X108.654886 Y42.318167 Z-0.125000 I-7.007558 J2.762324
G02 X108.715722 Y42.620608 Z-0.125000 I1.592216 J-0.162933
G01 X108.755989 Y42.650457 Z-0.125000
G02 X108.822479 Y42.643482 Z-0.125000 I0.000000 J-0.320427
G02 X110.834877 Y42.209426 Z-0.125000 I-62.575324 J-294.997758
G03 X112.840585 Y41.788124 Z-0.125000 I24.932274 J113.710967
G01 X112.877145 Y41.799175 Z-0.125000
G01 X112.888182 Y41.835718 Z-0.125000
G03 X112.470490 Y43.815381 Z-0.125000 I-111.038460 J-22.394272
G02 X112.042379 Y45.802058 Z-0.125000 I214.724066 J47.310518
G02 X112.033053 Y45.891573 Z-0.125000 I0.424926 J0.089515
G02 X112.074396 Y45.945276 Z-0.125000 I0.055550 J0.000000
G02 X112.642588 Y46.052888 Z-0.125000 I1.035874 J-3.915581
G03 X114.415904 Y46.519759 Z-0.125000 I-0.749555 J6.448269
G03 X116.223633 Y47.563357 Z-0.125000 I-3.268522 J7.749239
G02 X118.066425 Y48.611362 Z-0.125000 I4.902279 J-6.475905
G02 X119.518221 Y48.902851 Z-0.125000 I1.491687 J-3.668366
G03 X120.023345 Y48.935201 Z-0.125000 I-0.047378 J4.699554
G03 X120.077429 Y48.969129 Z-0.125000 I-0.008765 J0.074044
G03 X120.087288 Y49.031627 Z-0.125000 I-0.066710 J0.042550
G03 X120.004186 Y49.250193 Z-0.125000 I-1.045061 J-0.272265
G02 X119.660990 Y50.507232 Z-0.125000 I2.847950 J1.452914
G02 X119.775920 Y52.968063 Z-0.125000 I11.408680 J0.700273
G03 X119.926408 Y55.367679 Z-0.125000 I-12.928133 J2.015294
G03 X119.663135 Y56.809503 Z-0.125000 I-4.862205 J-0.142879
G02 X119.511838 Y57.294680 Z-0.125000 I8.127922 J2.800778
G01 X119.519345 Y57.323328 Z-0.125000
G02 X119.548730 Y57.339216 Z-0.125000 I0.041346 J-0.041349
G02 X121.808751 Y57.801654 Z-0.125000 I56.668060 J-271.193915
G03 X124.068744 Y58.263770 Z-0.125000 I-56.254590 J280.872189
G03 X124.097484 Y58.279307 Z-0.125000 I-0.011674 J0.055944
G01 X124.100271 Y58.305558 Z-0.125000
G03 X122.842242 Y60.221370 Z-0.125000 I-132.255570 J-85.475406
G02 X121.571219 Y62.143423 Z-0.125000 I236.683032 J157.896064
G02 X121.531506 Y62.220950 Z-0.125000 I0.341629 J0.223931
G02 X121.535892 Y62.278232 Z-0.125000 I0.062604 J0.024015
G01 X121.578462 Y62.302955 Z-0.125000
G03 X121.901162 Y62.382879 Z-0.125000 I-0.000396 J0.693028
G03 X122.780906 Y62.936755 Z-0.125000 I-3.154757 J5.986429
G03 X123.589340 Y63.657924 Z-0.125000 I-3.608008 J4.858306
G03 X124.769028 Y65.058780 Z-0.125000 I-12.649725 J11.849729
G02 X126.473795 Y66.918710 Z-0.125000 I10.627813 J-8.029961
G02 X127.525303 Y67.545673 Z-0.125000 I2.101384 J-2.329077
G03 X127.790312 Y67.667561 Z-0.125000 I-0.544212 J1.532258
G03 X127.841191 Y67.726984 Z-0.125000 I-0.058076 J0.101219
G03 X127.831594 Y67.797171 Z-0.125000 I-0.068683 J0.026359
G03 X127.612025 Y68.035907 Z-0.125000 I-1.238234 J-0.918486
G02 X127.071626 Y68.649186 Z-0.125000 I2.137070 J2.427837
G02 X126.581230 Y69.556936 Z-0.125000 I4.264850 J2.890348
G02 X126.353371 Y70.252719 Z-0.125000 I4.307169 J1.795743
G02 X126.111442 Y71.493382 Z-0.125000 I13.542418 J3.284683
G03 X125.813822 Y72.856897 Z-0.125000 I-10.204531 J-1.513150
G03 X125.435853 Y73.820085 Z-0.125000 I-5.446215 J-1.581415
G03 X125.020229 Y74.541168 Z-0.125000 I-6.463179 J-3.244986
G03 X124.567272 Y75.144526 Z-0.125000 I-4.969834 J-3.259285
G02 X124.301656 Y75.477915 Z-0.125000 I4.661399 J3.986315
G02 X124.286882 Y75.522649 Z-0.125000 I0.060336 J0.044734
G01 X124.307653 Y75.561449 Z-0.125000
G02 X126.082908 Y76.719475 Z-0.125000 I60.218292 J-90.374970
G03 X127.827976 Y77.871164 Z-0.125000 I-37.242304 J58.328373
G01 X127.831305 Y77.911585 Z-0.125000
G03 X127.779974 Y77.952105 Z-0.125000 I-0.240197 J-0.251511
G03 X126.049882 Y79.063477 Z-0.125000 I-181.404335 J-280.492884
G02 X124.330043 Y80.181047 Z-0.125000 I66.317939 J103.939425
G02 X124.296767 Y80.223683 Z-0.125000 I0.046939 J0.070936
G02 X124.303255 Y80.272882 Z-0.125000 I0.051635 J0.018218
G02 X124.562555 Y80.610792 Z-0.125000 I3.308231 J-2.270164
G03 X125.019858 Y81.219351 Z-0.125000 I-4.582397 J3.919551
G03 X125.435853 Y81.940400 Z-0.125000 I-6.002780 J3.943719
G03 X125.814018 Y82.904557 Z-0.125000 I-5.063981 J2.542451
G03 X126.110768 Y84.267327 Z-0.125000 I-9.876984 J2.864456
G02 X126.272335 Y85.216446 Z-0.125000 I21.588506 J-3.186665
G02 X126.372960 Y85.625693 Z-0.125000 I4.104943 J-0.792328
G02 X126.945779 Y86.927554 Z-0.125000 I5.551126 J-1.665545
G02 X127.639885 Y87.751314 Z-0.125000 I2.856783 J-1.702835
G03 X127.832491 Y87.961200 Z-0.125000 I-0.771148 J0.900975
G03 X127.841641 Y88.032379 Z-0.125000 I-0.061470 J0.044079
G03 X127.789993 Y88.092854 Z-0.125000 I-0.111219 J-0.042691
G03 X127.525303 Y88.215037 Z-0.125000 I-0.800378 J-1.386104
G02 X126.473796 Y88.842000 Z-0.125000 I1.049896 J2.956070
G02 X124.769028 Y90.701930 Z-0.125000 I8.922889 J9.889752
G03 X123.589337 Y92.102638 Z-0.125000 I-13.815012 J-10.438018
G03 X122.780906 Y92.823730 Z-0.125000 I-4.418436 J-4.139876
G03 X121.901164 Y93.377756 Z-0.125000 I-4.041451 J-5.441958
G03 X121.578462 Y93.457755 Z-0.125000 I-0.323224 J-0.612973
G01 X121.535923 Y93.482415 Z-0.125000
G02 X121.531506 Y93.539536 Z-0.125000 I0.057913 J0.033209
G02 X121.571219 Y93.617073 Z-0.125000 I0.381551 J-0.146480
G02 X122.842242 Y95.539339 Z-0.125000 I234.990764 J-153.997096
G03 X124.100269 Y97.454930 Z-0.125000 I-131.936075 J88.017334
G01 X124.097484 Y97.481178 Z-0.125000
G03 X124.068743 Y97.496720 Z-0.125000 I-0.040429 J-0.040419
G03 X121.808751 Y97.959056 Z-0.125000 I-57.252764 J-274.108483
G02 X119.548731 Y98.421271 Z-0.125000 I55.691154 J278.060310
G02 X119.519345 Y98.437158 Z-0.125000 I0.011945 J0.057217
G01 X119.511837 Y98.465802 Z-0.125000
G02 X119.663135 Y98.950982 Z-0.125000 I8.278664 J-2.315419
G03 X119.926421 Y100.392891 Z-0.125000 I-4.599165 J1.584779
G03 X119.775920 Y102.792646 Z-0.125000 I-13.079624 J0.384308
G02 X119.658105 Y105.360023 Z-0.125000 I11.694481 J1.823042
G02 X120.009803 Y106.505125 Z-0.125000 I2.566617 J-0.161732
G03 X119.967264 Y106.711687 Z-0.125000 I-0.135266 J0.079805
G03 X119.529455 Y106.856512 Z-0.125000 I-0.443330 J-0.606032
G02 X118.074002 Y107.145964 Z-0.125000 I0.029058 J3.950072
G02 X116.223633 Y108.197128 Z-0.125000 I3.053109 J7.528588
G03 X114.415904 Y109.240726 Z-0.125000 I-5.076266 J-6.705669
G03 X112.642588 Y109.707597 Z-0.125000 I-2.522871 J-5.981390
G02 X112.071452 Y109.812806 Z-0.125000 I0.504935 J4.343939
G02 X112.033053 Y109.862171 Z-0.125000 I0.012532 J0.049366
G02 X112.041645 Y109.944789 Z-0.125000 I0.401513 J0.000000
G02 X112.469816 Y111.938814 Z-0.125000 I233.759567 J-49.151483
G03 X112.887306 Y113.926361 Z-0.125000 I-113.608807 J24.901501
G01 X112.876471 Y113.962209 Z-0.125000
G01 X112.840626 Y113.973039 Z-0.125000
G03 X110.834877 Y113.551283 Z-0.125000 I23.535620 J-116.908900
G02 X108.822479 Y113.117227 Z-0.125000 I-64.678831 J294.986213
G02 X108.755989 Y113.110253 Z-0.125000 I-0.066490 J0.313445
G01 X108.715722 Y113.140102 Z-0.125000
G02 X108.654886 Y113.442542 Z-0.125000 I1.531396 J0.465376
G03 X108.169239 Y115.437942 Z-0.125000 I-7.493203 J-0.766924
G03 X107.148686 Y117.263537 Z-0.125000 I-7.268328 J-2.865118
G02 X106.059999 Y119.174888 Z-0.125000 I6.985752 J5.244747
G02 X105.767404 Y120.609351 Z-0.125000 I3.576945 J1.476682
G03 X105.639081 Y121.082971 Z-0.125000 I-0.977550 J-0.010664
G03 X105.474881 Y121.122501 Z-0.125000 I-0.100680 J-0.057414
G02 X104.405194 Y120.762396 Z-0.125000 I-1.224673 J1.869080
G02 X101.735442 Y120.862556 Z-0.125000 I-0.868245 J12.488070
G03 X100.788023 Y120.963420 Z-0.125000 I-1.788125 J-12.295929
G03 X99.750242 Y120.997134 Z-0.125000 I-0.997082 J-14.702669
G03 X98.484268 Y120.897922 Z-0.125000 I0.023324 J-8.424251
G03 X97.652930 Y120.672259 Z-0.125000 I0.592902 J-3.828388
G02 X97.351210 Y120.566786 Z-0.125000 I-1.463367 J3.701860
G01 X97.328729 Y120.573404 Z-0.125000
G02 X97.316501 Y120.598545 Z-0.125000 I0.042678 J0.036302
G02 X96.856917 Y122.894938 Z-0.125000 I381.188004 J77.482440
G03 X96.376342 Y125.144437 Z-0.125000 I-70.688553 J-13.925574
G01 X96.333431 Y125.167269 Z-0.125000
G03 X96.266686 Y125.133039 Z-0.125000 I0.125311 J-0.326533
G03 X94.345086 Y123.860802 Z-0.125000 I180.697296 J-275.014449
G02 X92.430146 Y122.596864 Z-0.125000 I-129.511695 J194.135222
G01 X92.414256 Y122.599944 Z-0.125000
G02 X92.403402 Y122.619636 Z-0.125000 I0.087839 J0.061251
G02 X92.276531 Y122.926841 Z-0.125000 I22.172973 J9.336872
G03 X91.536252 Y124.103372 Z-0.125000 I-3.661196 J-1.482484
G03 X89.635064 Y125.828254 Z-0.125000 I-9.955288 J-9.062656
G02 X87.686092 Y127.605558 Z-0.125000 I8.061323 J10.797221
G02 X87.116044 Y128.624071 Z-0.125000 I1.959066 J1.765244
G03 X87.016359 Y128.866419 Z-0.125000 I-1.221158 J-0.360622
G03 X86.958099 Y128.917717 Z-0.125000 I-0.098204 J-0.052800
G03 X86.885666 Y128.907844 Z-0.125000 I-0.027221 J-0.070935
G03 X86.425626 Y128.523418 Z-0.125000 I3.037750 J-4.102724
G02 X85.190282 Y127.732028 Z-0.125000 I-2.730722 J2.902739
G02 X83.117108 Y127.184149 Z-0.125000 I-3.194492 J7.891559
G03 X81.041274 Y126.604953 Z-0.125000 I1.016998 J-7.654401
G03 X79.378120 Y125.549661 Z-0.125000 I2.583224 J-5.909418
G01 X79.120646 Y125.324539 Z-0.125000
G01 X78.594913 Y126.138975 Z-0.125000
G02 X78.070714 Y126.954541 Z-0.125000 I213.499294 J137.801428
G02 X77.436056 Y127.949606 Z-0.125000 I311.677673 J199.489480
G03 X76.796499 Y128.933538 Z-0.125000 I-48.479568 J-30.811961
G01 X76.774172 Y128.945351 Z-0.125000
G01 X76.774172 Y128.945351 Z-0.125000
G00 Z5.000000

(End cutting path id: path250)


(Start cutting path id: path250)
(Change tool to Default tool)

G00 Z5.000000
G00 X76.774172 Y128.945351

G01 Z-0.125000 F100.0(Penetrate)
G01 X76.751869 Y128.933150 Z-0.125000 F400.000000
G03 X75.589253 Y127.135844 Z-0.125000 I160.524512 J-105.112535
G01 X74.433316 Y125.326786 Z-0.125000
G01 X74.086422 Y125.615490 Z-0.125000
G03 X72.421670 Y126.635999 Z-0.125000 I-4.338843 J-5.209827
G03 X70.431461 Y127.184149 Z-0.125000 I-2.988020 J-6.961755
G02 X68.358150 Y127.732016 Z-0.125000 I1.121564 J8.441347
G02 X67.122717 Y128.523418 Z-0.125000 I1.495161 J3.694049
G03 X66.662681 Y128.907844 Z-0.125000 I-3.496792 J-3.717077
G03 X66.590246 Y128.917717 Z-0.125000 I-0.045213 J-0.061066
G03 X66.531996 Y128.866427 Z-0.125000 I0.039954 J-0.104097
G03 X66.432301 Y128.624071 Z-0.125000 I1.121209 J-0.602903
G02 X65.862306 Y127.605563 Z-0.125000 I-2.529621 J0.746921
G02 X63.913505 Y125.828254 Z-0.125000 I-10.006068 J9.014475
G03 X62.012172 Y124.103379 Z-0.125000 I8.057809 J-10.792502
G03 X61.271812 Y122.926841 Z-0.125000 I2.920243 J-2.658831
G02 X61.144956 Y122.619646 Z-0.125000 I-22.385278 J9.064261
G02 X61.134089 Y122.599944 Z-0.125000 I-0.098457 J0.041453
G01 X61.118217 Y122.596863 Z-0.125000
G02 X59.203259 Y123.860802 Z-0.125000 I127.493368 J195.244212
G03 X57.281689 Y125.133012 Z-0.125000 I-182.486255 J-273.543385
G03 X57.214014 Y125.167718 Z-0.125000 I-0.194726 J-0.296369
G01 X57.170526 Y125.144577 Z-0.125000
G03 X56.690753 Y122.895163 Z-0.125000 I69.358053 J-15.969125
G02 X56.232345 Y120.598578 Z-0.125000 I-378.860664 J74.428066
G02 X56.220066 Y120.573404 Z-0.125000 I-0.054670 J0.011085
G01 X56.197352 Y120.566810 Z-0.125000
G02 X55.895640 Y120.672259 Z-0.125000 I1.158314 J3.798555
G03 X55.064217 Y120.897931 Z-0.125000 I-1.424182 J-3.602585
G03 X53.798103 Y120.997134 Z-0.125000 I-1.289445 J-8.327710
G03 X52.760322 Y120.963424 Z-0.125000 I-0.040897 J-14.731835
G03 X51.812903 Y120.862556 Z-0.125000 I0.840880 J-12.397994
G02 X49.143151 Y120.762396 Z-0.125000 I-1.801507 J12.387910
G02 X48.073464 Y121.122501 Z-0.125000 I0.154986 J2.229184
G03 X47.909450 Y121.082861 Z-0.125000 I-0.063408 J-0.096772
G03 X47.782064 Y120.609351 Z-0.125000 I0.849536 J-0.482437
G02 X47.491513 Y119.179708 Z-0.125000 I-3.835220 J0.035097
G02 X46.399658 Y117.263537 Z-0.125000 I-8.105121 J3.349228
G03 X45.379224 Y115.437942 Z-0.125000 I6.245606 J-4.689028
G03 X44.893683 Y113.442542 Z-0.125000 I7.009917 J-2.762498
G02 X44.832330 Y113.140305 Z-0.125000 I-1.563982 J0.160138
G01 X44.791457 Y113.110029 Z-0.125000
G02 X44.724130 Y113.117007 Z-0.125000 I-0.000979 J0.318833
G02 X42.713916 Y113.552183 Z-0.125000 I60.003199 J282.034024
G03 X40.710591 Y113.973917 Z-0.125000 I-23.736652 J-107.784950
G01 X40.671874 Y113.962209 Z-0.125000
G01 X40.660165 Y113.923484 Z-0.125000
G03 X41.077407 Y111.944206 Z-0.125000 I105.402224 J21.185662
G02 X41.506218 Y109.957752 Z-0.125000 I-217.373519 J-47.963477
G02 X41.515516 Y109.868687 Z-0.125000 I-0.421922 J-0.089066
G02 X41.474353 Y109.815229 Z-0.125000 I-0.055295 J0.000000
G02 X40.905757 Y109.707597 Z-0.125000 I-1.037186 J3.923550
G03 X39.132558 Y109.240714 Z-0.125000 I0.749389 J-6.446842
G03 X37.324936 Y108.197128 Z-0.125000 I3.269395 J-7.750311
G02 X35.477547 Y107.148228 Z-0.125000 I-4.886295 J6.454735
G02 X34.019339 Y106.858309 Z-0.125000 I-1.488820 J3.676179
G03 X33.510633 Y106.821799 Z-0.125000 I0.030745 J-3.990660
G03 X33.460580 Y106.782145 Z-0.125000 I0.008474 J-0.062113
G03 X33.458356 Y106.711288 Z-0.125000 I0.100638 J-0.038622
G03 X33.571569 Y106.427613 Z-0.125000 I1.918484 J0.601221
G02 X33.894346 Y105.189583 Z-0.125000 I-2.881172 J-1.412267
G02 X33.769280 Y102.792646 Z-0.125000 I-11.277540 J-0.613297
G03 X33.593525 Y100.900840 Z-0.125000 I14.231310 J-2.276201
G03 X33.686601 Y99.690827 Z-0.125000 I5.874270 J-0.156731
G03 X33.786095 Y99.252897 Z-0.125000 I5.113188 J0.931413
G03 X33.913968 Y98.858193 Z-0.125000 I4.288270 J1.171215
G02 X34.040793 Y98.472874 Z-0.125000 I-4.519544 J-1.701106
G01 X34.032371 Y98.440528 Z-0.125000
G02 X33.998958 Y98.422434 Z-0.125000 I-0.047093 J0.047065
G02 X31.739819 Y97.959056 Z-0.125000 I-51.106777 J243.425693
G03 X29.479622 Y97.496722 Z-0.125000 I55.247967 J-275.844975
G03 X29.450861 Y97.481178 Z-0.125000 I0.011701 J-0.056030
G01 X29.448076 Y97.454930 Z-0.125000
G03 X30.706103 Y95.539339 Z-0.125000 I133.194102 J86.101743
G02 X31.977343 Y93.617073 Z-0.125000 I-238.288406 J-158.967214
G02 X32.017063 Y93.539536 Z-0.125000 I-0.341568 J-0.223917
G02 X32.012540 Y93.482381 Z-0.125000 I-0.062140 J-0.023838
G01 X31.969883 Y93.457755 Z-0.125000
G03 X31.647233 Y93.377768 Z-0.125000 I0.000401 J-0.692363
G03 X30.767664 Y92.823730 Z-0.125000 I3.165775 J-6.001072
G03 X29.959150 Y92.102643 Z-0.125000 I3.612361 J-4.864140
G03 X28.779317 Y90.701930 Z-0.125000 I12.622828 J-11.829570
G02 X27.074553 Y88.842000 Z-0.125000 I-10.627194 J8.029381
G02 X26.023042 Y88.215037 Z-0.125000 I-2.101421 J2.329142
G03 X25.758353 Y88.092856 Z-0.125000 I0.535854 J-1.508657
G03 X25.706704 Y88.032379 Z-0.125000 I0.059567 J-0.103165
G03 X25.715892 Y87.961195 Z-0.125000 I0.070560 J-0.027078
G03 X25.908684 Y87.751314 Z-0.125000 I0.967745 J0.695464
G02 X26.599943 Y86.930447 Z-0.125000 I-2.150735 J-2.512641
G02 X27.175609 Y85.623222 Z-0.125000 I-5.037716 J-2.998840
G02 X27.275925 Y85.216427 Z-0.125000 I-3.940584 J-1.187514
G02 X27.437577 Y84.267327 Z-0.125000 I-21.339477 J-4.122881
G03 X27.604771 Y83.319906 Z-0.125000 I16.922891 J2.497965
G03 X27.725831 Y82.865375 Z-0.125000 I4.008649 J0.824278
G03 X28.314557 Y81.533324 Z-0.125000 I7.045740 J2.317883
G03 X29.047351 Y80.527439 Z-0.125000 I4.716166 J2.665890
G02 X29.245973 Y80.277567 Z-0.125000 I-1.607929 J-1.482014
G02 X29.252700 Y80.226378 Z-0.125000 I-0.047285 J-0.032250
G02 X29.217788 Y80.181576 Z-0.125000 I-0.084281 J0.029671
G02 X27.498687 Y79.063477 Z-0.125000 I-64.894034 J97.895351
G03 X25.768361 Y77.952101 Z-0.125000 I183.261915 J-287.227336
G03 X25.717039 Y77.911585 Z-0.125000 I0.188464 J-0.291485
G01 X25.720367 Y77.871160 Z-0.125000
G03 X27.465661 Y76.719475 Z-0.125000 I39.146911 J57.425989
G02 X29.235229 Y75.558485 Z-0.125000 I-45.927723 J-71.931634
G02 X29.261463 Y75.509168 Z-0.125000 I-0.033238 J-0.049317
G02 X29.242798 Y75.453403 Z-0.125000 I-0.092634 J0.000000
G02 X29.087342 Y75.278430 Z-0.125000 I-1.163457 J0.877136
G03 X28.675087 Y74.787092 Z-0.125000 I2.044513 J-2.134060
G03 X28.112266 Y73.820085 Z-0.125000 I7.472013 J-4.996175
G03 X27.734129 Y72.855292 Z-0.125000 I5.080446 J-2.547707
G03 X27.437577 Y71.493382 Z-0.125000 I9.873465 J-2.863167
G02 X27.275925 Y70.544282 Z-0.125000 I-21.500953 J3.173751
G02 X27.175609 Y70.137489 Z-0.125000 I-4.040833 J0.780708
G02 X26.599940 Y68.830255 Z-0.125000 I-5.613345 J1.691588
G02 X25.908684 Y68.009397 Z-0.125000 I-2.841929 J1.691740
G03 X25.715890 Y67.799511 Z-0.125000 I0.774995 J-0.905378
G03 X25.706704 Y67.728332 Z-0.125000 I0.061368 J-0.044102
G03 X25.758355 Y67.667852 Z-0.125000 I0.111216 J0.042684
G03 X26.023042 Y67.545673 Z-0.125000 I0.800604 J1.386624
G02 X27.074553 Y66.918709 Z-0.125000 I-1.049891 J-2.956076
G02 X28.779317 Y65.058780 Z-0.125000 I-8.922587 J-9.889450
G03 X29.959147 Y63.657919 Z-0.125000 I13.817037 J10.439693
G03 X30.767664 Y62.936755 Z-0.125000 I4.418877 J4.140310
G03 X31.647235 Y62.382814 Z-0.125000 I4.040778 J5.440839
G03 X31.969883 Y62.302955 Z-0.125000 I0.322648 J0.611855
G01 X32.012593 Y62.278233 Z-0.125000
G02 X32.017063 Y62.220950 Z-0.125000 I-0.057951 J-0.033338
G02 X31.977343 Y62.143422 Z-0.125000 I-0.381079 J0.146303
G02 X30.706103 Y60.221370 Z-0.125000 I-242.641105 J159.100693
G03 X29.448074 Y58.305558 Z-0.125000 I130.997541 J-87.391218
G01 X29.450861 Y58.279307 Z-0.125000
G03 X29.479622 Y58.263768 Z-0.125000 I0.040447 J0.040475
G03 X31.739819 Y57.801654 Z-0.125000 I58.781633 J281.742406
G02 X33.998959 Y57.338053 Z-0.125000 I-47.855052 J-238.935442
G02 X34.032371 Y57.319957 Z-0.125000 I-0.013698 J-0.065185
G01 X34.040784 Y57.287626 Z-0.125000
G02 X33.913968 Y56.902518 Z-0.125000 I-4.658637 J1.320646
G03 X33.786096 Y56.507816 Z-0.125000 I4.160572 J-1.565976
G03 X33.686601 Y56.069884 Z-0.125000 I5.013419 J-1.369281
G03 X33.593525 Y54.859876 Z-0.125000 I5.781140 J-1.053278
G03 X33.769280 Y52.968063 Z-0.125000 I14.407174 J0.384397
G02 X33.892907 Y50.410350 Z-0.125000 I-11.485892 J-1.837014
G02 X33.538766 Y49.255360 Z-0.125000 I-2.583580 J0.160384
G03 X33.581304 Y49.047826 Z-0.125000 I0.136011 J-0.080249
G03 X34.019339 Y48.902401 Z-0.125000 I0.443790 J0.604326
G02 X35.477549 Y48.612394 Z-0.125000 I-0.030603 J-3.964968
G02 X37.324936 Y47.563357 Z-0.125000 I-3.041160 J-7.506748
G03 X39.132558 Y46.519771 Z-0.125000 I5.077002 J6.706697
G03 X40.905757 Y46.052888 Z-0.125000 I2.522589 J5.979966
G02 X41.474349 Y45.945450 Z-0.125000 I-0.470711 J-4.049429
G02 X41.515516 Y45.892023 Z-0.125000 I-0.014086 J-0.053427
G02 X41.506218 Y45.802961 Z-0.125000 I-0.431202 J0.000000
G02 X41.077407 Y43.816504 Z-0.125000 I-217.782927 J45.972789
G03 X40.659503 Y41.836883 Z-0.125000 I108.292755 J-23.894827
G01 X40.670750 Y41.799625 Z-0.125000
G01 X40.708024 Y41.788357 Z-0.125000
G03 X42.713466 Y42.209426 Z-0.125000 I-22.690250 J113.053973
G02 X44.725846 Y42.643480 Z-0.125000 I64.604321 J-294.639401
G02 X44.792356 Y42.650457 Z-0.125000 I0.066510 J-0.313544
G01 X44.832663 Y42.620613 Z-0.125000
G02 X44.893683 Y42.318167 Z-0.125000 I-1.522833 J-0.464616
G03 X45.379224 Y40.322768 Z-0.125000 I7.495462 J0.767100
G03 X46.399658 Y38.497172 Z-0.125000 I7.266039 J2.863431
G02 X47.491517 Y36.581005 Z-0.125000 I-7.013366 J-5.265478
G02 X47.782064 Y35.151359 Z-0.125000 I-3.544532 J-1.464702
G03 X47.909429 Y34.677658 Z-0.125000 I0.977895 J0.008956
G03 X48.073464 Y34.637984 Z-0.125000 I0.100626 J0.057103
G02 X49.143153 Y34.998092 Z-0.125000 I1.224668 J-1.869050
G02 X51.812903 Y34.897929 Z-0.125000 I0.868227 J-12.488181
G03 X52.760322 Y34.797055 Z-0.125000 I1.788682 J12.299891
G03 X53.798103 Y34.763351 Z-0.125000 I0.996488 J14.688890
G03 X55.064217 Y34.862686 Z-0.125000 I-0.023299 J8.415518
G03 X55.895640 Y35.088451 Z-0.125000 I-0.594103 J3.831719
G02 X56.197260 Y35.193675 Z-0.125000 I1.439168 J-3.640411
G01 X56.220066 Y35.187081 Z-0.125000
G02 X56.232459 Y35.161841 Z-0.125000 I-0.041896 J-0.036234
G02 X56.690080 Y32.865098 Z-0.125000 I-367.010070 J-74.319880
G03 X57.169123 Y30.615958 Z-0.125000 I69.173930 J13.557725
G01 X57.213115 Y30.592542 Z-0.125000
G03 X57.281606 Y30.627666 Z-0.125000 I-0.128583 J0.335075
G03 X59.203259 Y31.899907 Z-0.125000 I-180.135156 J274.171896
G02 X61.118206 Y33.163840 Z-0.125000 I129.336394 J-193.871181
G01 X61.134089 Y33.160766 Z-0.125000
G02 X61.144957 Y33.141051 Z-0.125000 I-0.087438 J-0.061049
G02 X61.271812 Y32.833644 Z-0.125000 I-23.084254 J-9.705936
G03 X62.012179 Y31.657196 Z-0.125000 I3.659647 J1.481912
G03 X63.913505 Y29.932457 Z-0.125000 I9.962112 J9.071714
G02 X65.834450 Y28.185715 Z-0.125000 I-8.051763 J-10.784400
G02 X66.426235 Y27.159780 Z-0.125000 I-2.075342 J-1.880756
G03 X66.524702 Y26.910724 Z-0.125000 I1.923819 J0.616605
G03 X66.569800 Y26.857147 Z-0.125000 I0.124540 J0.059062
G03 X66.650725 Y26.856660 Z-0.125000 I0.040813 J0.057883
G03 X67.123167 Y27.237517 Z-0.125000 I-2.251689 J3.276606
G02 X68.358094 Y28.028534 Z-0.125000 I2.728882 J-2.900812
G02 X70.431461 Y28.576336 Z-0.125000 I3.195253 J-7.896038
G03 X72.507299 Y29.155641 Z-0.125000 I-1.016670 J7.651918
G03 X74.170450 Y30.211049 Z-0.125000 I-2.584625 J5.911077
G01 X74.427699 Y30.436170 Z-0.125000
G01 X74.953431 Y29.621510 Z-0.125000
G02 X75.477631 Y28.805940 Z-0.125000 I-213.747426 J-137.960522
G02 X76.112289 Y27.810880 Z-0.125000 I-311.921156 J-199.645712
G03 X76.751847 Y26.827100 Z-0.125000 I48.050058 J30.537713
G01 X76.774172 Y26.815134 Z-0.125000
G01 X76.796476 Y26.827294 Z-0.125000
G03 X77.959092 Y28.624642 Z-0.125000 I-160.864343 J105.329963
G01 X79.115253 Y30.433924 Z-0.125000
G01 X79.461922 Y30.144995 Z-0.125000
G03 X81.126771 Y29.124472 Z-0.125000 I4.338396 J5.209271
G03 X83.117108 Y28.576336 Z-0.125000 I2.988321 J6.963268
G02 X85.190283 Y28.028456 Z-0.125000 I-1.121317 J-8.439432
G02 X86.425626 Y27.237068 Z-0.125000 I-1.495385 J-3.694142
G03 X86.885666 Y26.852638 Z-0.125000 I3.497572 J3.717996
G03 X86.958099 Y26.842768 Z-0.125000 I0.045209 J0.061059
G03 X87.016371 Y26.894109 Z-0.125000 I-0.039931 J0.104062
G03 X87.116044 Y27.136639 Z-0.125000 I-1.125965 J0.604483
G02 X87.686093 Y28.155154 Z-0.125000 I2.529109 J-0.746727
G02 X89.635064 Y29.932457 Z-0.125000 I10.010365 J-9.019997
G03 X91.536245 Y31.657203 Z-0.125000 I-8.057082 J10.791494
G03 X92.276531 Y32.833644 Z-0.125000 I-2.919953 J2.658543
G02 X92.403388 Y33.141051 Z-0.125000 I23.200709 J-9.394318
G02 X92.414256 Y33.160766 Z-0.125000 I0.098308 J-0.041335
G01 X92.430139 Y33.163840 Z-0.125000
G02 X94.345086 Y31.899907 Z-0.125000 I-127.421447 J-195.135113
G03 X96.266737 Y30.627654 Z-0.125000 I182.299498 J273.263440
G03 X96.333881 Y30.593216 Z-0.125000 I0.193291 J0.294189
G01 X96.377058 Y30.616184 Z-0.125000
G03 X96.858041 Y32.865547 Z-0.125000 I-69.776674 J16.096497
G02 X97.317366 Y35.162169 Z-0.125000 I410.353771 J-80.876749
G02 X97.329177 Y35.187081 Z-0.125000 I0.056258 J-0.011415
G01 X97.351200 Y35.193764 Z-0.125000
G02 X97.652930 Y35.088451 Z-0.125000 I-1.144314 J-3.763442
G03 X98.484268 Y34.862692 Z-0.125000 I1.425625 J3.606198
G03 X99.750242 Y34.763351 Z-0.125000 I1.289174 J8.312586
G03 X100.788023 Y34.797062 Z-0.125000 I0.040897 J14.731681
G03 X101.735442 Y34.897929 Z-0.125000 I-0.840914 J12.398362
G02 X104.405192 Y34.998092 Z-0.125000 I1.801522 J-12.388019
G02 X105.474881 Y34.637984 Z-0.125000 I-0.154980 J-2.229157
G03 X105.639004 Y34.677633 Z-0.125000 I0.063455 J0.096846
G03 X105.766505 Y35.151359 Z-0.125000 I-0.849475 J0.482655
G02 X106.056973 Y36.581003 Z-0.125000 I3.836284 J-0.035107
G02 X107.148686 Y38.497172 Z-0.125000 I8.101643 J-3.346729
G03 X108.169239 Y40.322768 Z-0.125000 I-6.247775 J4.690713
G03 X108.654886 Y42.318167 Z-0.125000 I-7.007558 J2.762324
G02 X108.715722 Y42.620608 Z-0.125000 I1.592216 J-0.162933
G01 X108.755989 Y42.650457 Z-0.125000
G02 X108.822479 Y42.643482 Z-0.125000 I0.000000 J-0.320427
G02 X110.834877 Y42.209426 Z-0.125000 I-62.575324 J-294.997758
G03 X112.840585 Y41.788124 Z-0.125000 I24.932274 J113.710967
G01 X112.877145 Y41.799175 Z-0.125000
G01 X112.888182 Y41.835718 Z-0.125000
G03 X112.470490 Y43.815381 Z-0.125000 I-111.038460 J-22.394272
G02 X112.042379 Y45.802058 Z-0.125000 I214.724066 J47.310518
G02 X112.033053 Y45.891573 Z-0.125000 I0.424926 J0.089515
G02 X112.074396 Y45.945276 Z-0.125000 I0.055550 J0.000000
G02 X112.642588 Y46.052888 Z-0.125000 I1.035874 J-3.915581
G03 X114.415904 Y46.519759 Z-0.125000 I-0.749555 J6.448269
G03 X116.223633 Y47.563357 Z-0.125000 I-3.268522 J7.749239
G02 X118.066425 Y48.611362 Z-0.125000 I4.902279 J-6.475905
G02 X119.518221 Y48.902851 Z-0.125000 I1.491687 J-3.668366
G03 X120.023345 Y48.935201 Z-0.125000 I-0.047378 J4.699554
G03 X120.077429 Y48.969129 Z-0.125000 I-0.008765 J0.074044
G03 X120.087288 Y49.031627 Z-0.125000 I-0.066710 J0.042550
G03 X120.004186 Y49.250193 Z-0.125000 I-1.045061 J-0.272265
G02 X119.660990 Y50.507232 Z-0.125000 I2.847950 J1.452914
G02 X119.775920 Y52.968063 Z-0.125000 I11.408680 J0.700273
G03 X119.926408 Y55.367679 Z-0.125000 I-12.928133 J2.015294
G03 X119.663135 Y56.809503 Z-0.125000 I-4.862205 J-0.142879
G02 X119.511838 Y57.294680 Z-0.125000 I8.127922 J2.800778
G01 X119.519345 Y57.323328 Z-0.125000
G02 X119.548730 Y57.339216 Z-0.125000 I0.041346 J-0.041349
G02 X121.808751 Y57.801654 Z-0.125000 I56.668060 J-271.193915
G03 X124.068744 Y58.263770 Z-0.125000 I-56.254590 J280.872189
G03 X124.097484 Y58.279307 Z-0.125000 I-0.011674 J0.055944
G01 X124.100271 Y58.305558 Z-0.125000
G03 X122.842242 Y60.221370 Z-0.125000 I-132.255570 J-85.475406
G02 X121.571219 Y62.143423 Z-0.125000 I236.683032 J157.896064
G02 X121.531506 Y62.220950 Z-0.125000 I0.341629 J0.223931
G02 X121.535892 Y62.278232 Z-0.125000 I0.062604 J0.024015
G01 X121.578462 Y62.302955 Z-0.125000
G03 X121.901162 Y62.382879 Z-0.125000 I-0.000396 J0.693028
G03 X122.780906 Y62.936755 Z-0.125000 I-3.154757 J5.986429
G03 X123.589340 Y63.657924 Z-0.125000 I-3.608008 J4.858306
G03 X124.769028 Y65.058780 Z-0.125000 I-12.649725 J11.849729
G02 X126.473795 Y66.918710 Z-0.125000 I10.627813 J-8.029961
G02 X127.525303 Y67.545673 Z-0.125000 I2.101384 J-2.329077
G03 X127.790312 Y67.667561 Z-0.125000 I-0.544212 J1.532258
G03 X127.841191 Y67.726984 Z-0.125000 I-0.058076 J0.101219
G03 X127.831594 Y67.797171 Z-0.125000 I-0.068683 J0.026359
G03 X127.612025 Y68.035907 Z-0.125000 I-1.238234 J-0.918486
G02 X127.071626 Y68.649186 Z-0.125000 I2.137070 J2.427837
G02 X126.581230 Y69.556936 Z-0.125000 I4.264850 J2.890348
G02 X126.353371 Y70.252719 Z-0.125000 I4.307169 J1.795743
G02 X126.111442 Y71.493382 Z-0.125000 I13.542418 J3.284683
G03 X125.813822 Y72.856897 Z-0.125000 I-10.204531 J-1.513150
G03 X125.435853 Y73.820085 Z-0.125000 I-5.446215 J-1.581415
G03 X125.020229 Y74.541168 Z-0.125000 I-6.463179 J-3.244986
G03 X124.567272 Y75.144526 Z-0.125000 I-4.969834 J-3.259285
G02 X124.301656 Y75.477915 Z-0.125000 I4.661399 J3.986315
G02 X124.286882 Y75.522649 Z-0.125000 I0.060336 J0.044734
G01 X124.307653 Y75.561449 Z-0.125000
G02 X126.082908 Y76.719475 Z-0.125000 I60.218292 J-90.374970
G03 X127.827976 Y77.871164 Z-0.125000 I-37.242304 J58.328373
G01 X127.831305 Y77.911585 Z-0.125000
G03 X127.779974 Y77.952105 Z-0.125000 I-0.240197 J-0.251511
G03 X126.049882 Y79.063477 Z-0.125000 I-181.404335 J-280.492884
G02 X124.330043 Y80.181047 Z-0.125000 I66.317939 J103.939425
G02 X124.296767 Y80.223683 Z-0.125000 I0.046939 J0.070936
G02 X124.303255 Y80.272882 Z-0.125000 I0.051635 J0.018218
G02 X124.562555 Y80.610792 Z-0.125000 I3.308231 J-2.270164
G03 X125.019858 Y81.219351 Z-0.125000 I-4.582397 J3.919551
G03 X125.435853 Y81.940400 Z-0.125000 I-6.002780 J3.943719
G03 X125.814018 Y82.904557 Z-0.125000 I-5.063981 J2.542451
G03 X126.110768 Y84.267327 Z-0.125000 I-9.876984 J2.864456
G02 X126.272335 Y85.216446 Z-0.125000 I21.588506 J-3.186665
G02 X126.372960 Y85.625693 Z-0.125000 I4.104943 J-0.792328
G02 X126.945779 Y86.927554 Z-0.125000 I5.551126 J-1.665545
G02 X127.639885 Y87.751314 Z-0.125000 I2.856783 J-1.702835
G03 X127.832491 Y87.961200 Z-0.125000 I-0.771148 J0.900975
G03 X127.841641 Y88.032379 Z-0.125000 I-0.061470 J0.044079
G03 X127.789993 Y88.092854 Z-0.125000 I-0.111219 J-0.042691
G03 X127.525303 Y88.215037 Z-0.125000 I-0.800378 J-1.386104
G02 X126.473796 Y88.842000 Z-0.125000 I1.049896 J2.956070
G02 X124.769028 Y90.701930 Z-0.125000 I8.922889 J9.889752
G03 X123.589337 Y92.102638 Z-0.125000 I-13.815012 J-10.438018
G03 X122.780906 Y92.823730 Z-0.125000 I-4.418436 J-4.139876
G03 X121.901164 Y93.377756 Z-0.125000 I-4.041451 J-5.441958
G03 X121.578462 Y93.457755 Z-0.125000 I-0.323224 J-0.612973
G01 X121.535923 Y93.482415 Z-0.125000
G02 X121.531506 Y93.539536 Z-0.125000 I0.057913 J0.033209
G02 X121.571219 Y93.617073 Z-0.125000 I0.381551 J-0.146480
G02 X122.842242 Y95.539339 Z-0.125000 I234.990764 J-153.997096
G03 X124.100269 Y97.454930 Z-0.125000 I-131.936075 J88.017334
G01 X124.097484 Y97.481178 Z-0.125000
G03 X124.068743 Y97.496720 Z-0.125000 I-0.040429 J-0.040419
G03 X121.808751 Y97.959056 Z-0.125000 I-57.252764 J-274.108483
G02 X119.548731 Y98.421271 Z-0.125000 I55.691154 J278.060310
G02 X119.519345 Y98.437158 Z-0.125000 I0.011945 J0.057217
G01 X119.511837 Y98.465802 Z-0.125000
G02 X119.663135 Y98.950982 Z-0.125000 I8.278664 J-2.315419
G03 X119.926421 Y100.392891 Z-0.125000 I-4.599165 J1.584779
G03 X119.775920 Y102.792646 Z-0.125000 I-13.079624 J0.384308
G02 X119.658105 Y105.360023 Z-0.125000 I11.694481 J1.823042
G02 X120.009803 Y106.505125 Z-0.125000 I2.566617 J-0.161732
G03 X119.967264 Y106.711687 Z-0.125000 I-0.135266 J0.079805
G03 X119.529455 Y106.856512 Z-0.125000 I-0.443330 J-0.606032
G02 X118.074002 Y107.145964 Z-0.125000 I0.029058 J3.950072
G02 X116.223633 Y108.197128 Z-0.125000 I3.053109 J7.528588
G03 X114.415904 Y109.240726 Z-0.125000 I-5.076266 J-6.705669
G03 X112.642588 Y109.707597 Z-0.125000 I-2.522871 J-5.981390
G02 X112.071452 Y109.812806 Z-0.125000 I0.504935 J4.343939
G02 X112.033053 Y109.862171 Z-0.125000 I0.012532 J0.049366
G02 X112.041645 Y109.944789 Z-0.125000 I0.401513 J0.000000
G02 X112.469816 Y111.938814 Z-0.125000 I233.759567 J-49.151483
G03 X112.887306 Y113.926361 Z-0.125000 I-113.608807 J24.901501
G01 X112.876471 Y113.962209 Z-0.125000
G01 X112.840626 Y113.973039 Z-0.125000
G03 X110.834877 Y113.551283 Z-0.125000 I23.535620 J-116.908900
G02 X108.822479 Y113.117227 Z-0.125000 I-64.678831 J294.986213
G02 X108.755989 Y113.110253 Z-0.125000 I-0.066490 J0.313445
G01 X108.715722 Y113.140102 Z-0.125000
G02 X108.654886 Y113.442542 Z-0.125000 I1.531396 J0.465376
G03 X108.169239 Y115.437942 Z-0.125000 I-7.493203 J-0.766924
G03 X107.148686 Y117.263537 Z-0.125000 I-7.268328 J-2.865118
G02 X106.059999 Y119.174888 Z-0.125000 I6.985752 J5.244747
G02 X105.767404 Y120.609351 Z-0.125000 I3.576945 J1.476682
G03 X105.639081 Y121.082971 Z-0.125000 I-0.977550 J-0.010664
G03 X105.474881 Y121.122501 Z-0.125000 I-0.100680 J-0.057414
G02 X104.405194 Y120.762396 Z-0.125000 I-1.224673 J1.869080
G02 X101.735442 Y120.862556 Z-0.125000 I-0.868245 J12.488070
G03 X100.788023 Y120.963420 Z-0.125000 I-1.788125 J-12.295929
G03 X99.750242 Y120.997134 Z-0.125000 I-0.997082 J-14.702669
G03 X98.484268 Y120.897922 Z-0.125000 I0.023324 J-8.424251
G03 X97.652930 Y120.672259 Z-0.125000 I0.592902 J-3.828388
G02 X97.351210 Y120.566786 Z-0.125000 I-1.463367 J3.701860
G01 X97.328729 Y120.573404 Z-0.125000
G02 X97.316501 Y120.598545 Z-0.125000 I0.042678 J0.036302
G02 X96.856917 Y122.894938 Z-0.125000 I381.188004 J77.482440
G03 X96.376342 Y125.144437 Z-0.125000 I-70.688553 J-13.925574
G01 X96.333431 Y125.167269 Z-0.125000
G03 X96.266686 Y125.133039 Z-0.125000 I0.125311 J-0.326533
G03 X94.345086 Y123.860802 Z-0.125000 I180.697296 J-275.014449
G02 X92.430146 Y122.596864 Z-0.125000 I-129.511695 J194.135222
G01 X92.414256 Y122.599944 Z-0.125000
G02 X92.403402 Y122.619636 Z-0.125000 I0.087839 J0.061251
G02 X92.276531 Y122.926841 Z-0.125000 I22.172973 J9.336872
G03 X91.536252 Y124.103372 Z-0.125000 I-3.661196 J-1.482484
G03 X89.635064 Y125.828254 Z-0.125000 I-9.955288 J-9.062656
G02 X87.686092 Y127.605558 Z-0.125000 I8.061323 J10.797221
G02 X87.116044 Y128.624071 Z-0.125000 I1.959066 J1.765244
G03 X87.016359 Y128.866419 Z-0.125000 I-1.221158 J-0.360622
G03 X86.958099 Y128.917717 Z-0.125000 I-0.098204 J-0.052800
G03 X86.885666 Y128.907844 Z-0.125000 I-0.027221 J-0.070935
G03 X86.425626 Y128.523418 Z-0.125000 I3.037750 J-4.102724
G02 X85.190282 Y127.732028 Z-0.125000 I-2.730722 J2.902739
G02 X83.117108 Y127.184149 Z-0.125000 I-3.194492 J7.891559
G03 X81.041274 Y126.604953 Z-0.125000 I1.016998 J-7.654401
G03 X79.378120 Y125.549661 Z-0.125000 I2.583224 J-5.909418
G01 X79.120646 Y125.324539 Z-0.125000
G01 X78.594913 Y126.138975 Z-0.125000
G02 X78.070714 Y126.954541 Z-0.125000 I213.499294 J137.801428
G02 X77.436056 Y127.949606 Z-0.125000 I311.677673 J199.489480
G03 X76.796499 Y128.933538 Z-0.125000 I-48.479568 J-30.811961
G01 X76.774172 Y128.945351 Z-0.125000
G01 X76.774172 Y128.945351 Z-0.125000
G00 Z5.000000

(End cutting path id: path250)


(Start cutting path id: path250)
(Change tool to Default tool)

G00 Z5.000000
G00 X76.774172 Y128.540043

G01 Z-0.125000 F100.0(Penetrate)
G02 X76.844214 Y128.501781 Z-0.125000 I0.000000 J-0.083240 F400.000000
G02 X84.030849 Y117.239722 Z-0.125000 I-1964.318930 J-1261.410789
G01 X84.264733 Y116.870811 Z-0.125000
G01 X90.244599 Y120.857389 Z-0.125000
G02 X96.205134 Y124.786759 Z-0.125000 I383.691515 J-575.543289
G01 X96.249404 Y124.771622 Z-0.125000
G02 X96.269507 Y124.698036 Z-0.125000 I-0.534342 J-0.185515
G02 X97.670004 Y117.734225 Z-0.125000 I-4736.858114 J-956.256016
G03 X99.109657 Y110.829944 Z-0.125000 I440.961709 J88.345293
G03 X99.176654 Y110.781979 Z-0.125000 I0.059974 J0.012997
G03 X99.286972 Y110.800245 Z-0.125000 I-0.129840 J1.126411
G03 X103.651894 Y111.751887 Z-0.125000 I-381.050563 J1758.260963
G02 X112.549785 Y113.683945 Z-0.125000 I467.662335 J-2132.314450
G01 X112.588217 Y113.672606 Z-0.125000
G01 X112.598756 Y113.636936 Z-0.125000
G02 X111.141555 Y106.920992 Z-0.125000 I-1303.710130 J279.358169
G03 X109.682486 Y100.204450 Z-0.125000 I1440.615589 J-316.469111
G01 X109.691972 Y100.172298 Z-0.125000
G03 X109.724211 Y100.154986 Z-0.125000 I0.044893 J0.044927
G03 X116.728471 Y98.741587 Z-0.125000 I489.676067 J2408.583809
G02 X123.737674 Y97.337310 Z-0.125000 I-10587.118550 J-52862.010773
G02 X123.752388 Y97.334019 Z-0.125000 I-0.066597 J-0.332294
G01 X123.755517 Y97.325952 Z-0.125000
G02 X119.781312 Y91.352355 Z-0.125000 I-3041.936125 J2019.476775
G01 X115.795632 Y85.374510 Z-0.125000
G01 X116.414155 Y84.973021 Z-0.125000
G03 X117.033868 Y84.573266 Z-0.125000 I70.335333 J108.355887
G03 X120.356472 Y82.445913 Z-0.125000 I1967.817039 J3069.774143
G01 X125.576948 Y79.107288 Z-0.125000
G02 X127.423363 Y77.889158 Z-0.125000 I-41.984551 J-65.647698
G01 X127.426671 Y77.848900 Z-0.125000
G02 X127.048215 Y77.551766 Z-0.125000 I-1.737223 J1.823093
G02 X116.036032 Y70.548863 Z-0.125000 I-1004.011933 J1566.665708
G01 X115.790465 Y70.393839 Z-0.125000
G01 X119.778841 Y64.411950 Z-0.125000
G02 X123.755499 Y58.434389 Z-0.125000 I-2978.573587 J-1985.850416
G01 X123.752388 Y58.426018 Z-0.125000
G02 X123.737646 Y58.422445 Z-0.125000 I-0.052008 J0.182420
G02 X116.728471 Y57.018672 Z-0.125000 I-8281.318730 J41331.223565
G03 X109.724591 Y55.605813 Z-0.125000 I474.694860 J-2371.241953
G03 X109.692197 Y55.588412 Z-0.125000 I0.012705 J-0.062504
G01 X109.682658 Y55.556088 Z-0.125000
G03 X111.141555 Y48.839718 Z-0.125000 I1430.179316 J307.139849
G02 X112.598755 Y42.123779 Z-0.125000 I-1302.364877 J-286.098527
G01 X112.588217 Y42.088103 Z-0.125000
G01 X112.549786 Y42.076765 Z-0.125000
G02 X103.651894 Y44.008598 Z-0.125000 I453.333224 J2109.479868
G03 X99.286972 Y44.960240 Z-0.125000 I-385.694571 J-1758.589505
G03 X99.176654 Y44.978506 Z-0.125000 I-0.240156 J-1.108134
G03 X99.109657 Y44.930539 Z-0.125000 I-0.007022 J-0.060965
G03 X97.670004 Y38.026260 Z-0.125000 I439.520864 J-95.249349
G02 X96.269507 Y31.062673 Z-0.125000 I-4698.056756 J941.237667
G02 X96.249404 Y30.989088 Z-0.125000 I-0.554529 J0.111953
G01 X96.205134 Y30.973950 Z-0.125000
G02 X90.244599 Y34.903322 Z-0.125000 I377.762286 J579.519999
G01 X84.264733 Y38.889674 Z-0.125000
G01 X84.030849 Y38.520988 Z-0.125000
G02 X83.796292 Y38.152623 Z-0.125000 I-98.181708 J62.258573
G02 X80.300172 Y32.686484 Z-0.125000 I-19223.924192 J12291.713033
G02 X76.796437 Y27.232799 Z-0.125000 I-1449.258114 J927.227771
G01 X76.774172 Y27.220667 Z-0.125000
G02 X76.704131 Y27.258929 Z-0.125000 I0.000000 J0.083240
G02 X69.517495 Y38.520988 Z-0.125000 I1963.882889 J1261.132690
G01 X69.283612 Y38.889674 Z-0.125000
G01 X63.303746 Y34.903096 Z-0.125000
G02 X57.349794 Y30.996518 Z-0.125000 I-268.584106 J402.854187
G01 X57.285684 Y31.017621 Z-0.125000
G02 X57.255842 Y31.121428 Z-0.125000 I0.621206 J0.234775
G02 X55.875644 Y38.026260 Z-0.125000 I2813.313384 J565.940110
G03 X54.491192 Y44.927282 Z-0.125000 I-1792.663541 J-356.046630
G03 X54.468749 Y44.970643 Z-0.125000 I-0.087271 J-0.017683
G01 X54.426708 Y44.984217 Z-0.125000
G03 X52.931094 Y44.674301 Z-0.125000 I10.422898 J-54.063324
G02 X41.026363 Y42.067976 Z-0.125000 I-494.279556 J2229.195360
G02 X40.961026 Y42.087205 Z-0.125000 I-0.015031 J0.069543
G01 X40.950205 Y42.123821 Z-0.125000
G02 X42.406790 Y48.839718 Z-0.125000 I1261.629495 J-270.114060
G03 X43.865873 Y55.555989 Z-0.125000 I-1446.923041 J317.854906
G01 X43.856373 Y55.588187 Z-0.125000
G03 X43.824106 Y55.605518 Z-0.125000 I-0.044932 J-0.044952
G03 X36.820099 Y57.018898 Z-0.125000 I-475.843739 J-2339.983718
G02 X29.810928 Y58.422809 Z-0.125000 I12669.927992 J63274.037181
G02 X29.796181 Y58.426242 Z-0.125000 I0.048000 J0.239577
G01 X29.793064 Y58.434469 Z-0.125000
G02 X33.769728 Y64.411950 Z-0.125000 I3002.851272 J-1993.407866
G01 X37.757879 Y70.393839 Z-0.125000
G01 X37.512537 Y70.548863 Z-0.125000
G02 X26.489008 Y77.559724 Z-0.125000 I1009.600958 J1599.618168
G02 X26.121898 Y77.848676 Z-0.125000 I1.302622 J2.032643
G01 X26.126964 Y77.901868 Z-0.125000
G02 X37.425365 Y85.156803 Z-0.125000 I1165.572337 J-1802.767220
G01 X37.756980 Y85.368219 Z-0.125000
G01 X33.769280 Y91.349209 Z-0.125000
G02 X29.793036 Y97.325939 Z-0.125000 I3022.067150 J2014.854448
G01 X29.796181 Y97.334019 Z-0.125000
G02 X29.810836 Y97.337315 Z-0.125000 I0.077665 J-0.311106
G02 X36.820099 Y98.741587 Z-0.125000 I10875.771330 J-54267.055947
G03 X43.824152 Y100.154988 Z-0.125000 I-480.696564 J2400.134750
G03 X43.856373 Y100.172298 Z-0.125000 I-0.012640 J0.062171
G01 X43.865859 Y100.204450 Z-0.125000
G03 X42.406790 Y106.920992 Z-0.125000 I-1442.074658 J-309.752569
G02 X40.949812 Y113.636936 Z-0.125000 I1286.410221 J282.593845
G01 X40.960352 Y113.672606 Z-0.125000
G01 X40.998785 Y113.683945 Z-0.125000
G02 X49.896675 Y111.751887 Z-0.125000 I-458.693971 J-2133.921915
G03 X54.261578 Y110.800247 Z-0.125000 I385.594382 J1758.125853
G03 X54.371915 Y110.781979 Z-0.125000 I0.240147 J1.108092
G03 X54.438912 Y110.829944 Z-0.125000 I0.007024 J0.060962
G03 X55.878565 Y117.734225 Z-0.125000 I-439.522056 J95.249574
G02 X57.278839 Y124.698036 Z-0.125000 I4965.598180 J-994.853737
G02 X57.298940 Y124.771622 Z-0.125000 I0.554183 J-0.111839
G01 X57.343198 Y124.786761 Z-0.125000
G02 X63.303746 Y120.857389 Z-0.125000 I-377.777999 J-579.545011
G01 X69.283612 Y116.870811 Z-0.125000
G01 X69.517495 Y117.239722 Z-0.125000
G02 X76.704131 Y128.501781 Z-0.125000 I1971.456076 J-1250.117349
G02 X76.774172 Y128.540043 Z-0.125000 I0.070042 J-0.044978
G01 X76.774172 Y128.540043 Z-0.125000
G00 Z5.000000

(End cutting path id: path250)


(Start cutting path id: path250)
(Change tool to Default tool)

G00 Z5.000000
G00 X76.774172 Y128.540043

G01 Z-0.125000 F100.0(Penetrate)
G02 X76.844214 Y128.501781 Z-0.125000 I0.000000 J-0.083240 F400.000000
G02 X84.030849 Y117.239722 Z-0.125000 I-1964.318930 J-1261.410789
G01 X84.264733 Y116.870811 Z-0.125000
G01 X90.244599 Y120.857389 Z-0.125000
G02 X96.205134 Y124.786759 Z-0.125000 I383.691515 J-575.543289
G01 X96.249404 Y124.771622 Z-0.125000
G02 X96.269507 Y124.698036 Z-0.125000 I-0.534342 J-0.185515
G02 X97.670004 Y117.734225 Z-0.125000 I-4736.858114 J-956.256016
G03 X99.109657 Y110.829944 Z-0.125000 I440.961709 J88.345293
G03 X99.176654 Y110.781979 Z-0.125000 I0.059974 J0.012997
G03 X99.286972 Y110.800245 Z-0.125000 I-0.129840 J1.126411
G03 X103.651894 Y111.751887 Z-0.125000 I-381.050563 J1758.260963
G02 X112.549785 Y113.683945 Z-0.125000 I467.662335 J-2132.314450
G01 X112.588217 Y113.672606 Z-0.125000
G01 X112.598756 Y113.636936 Z-0.125000
G02 X111.141555 Y106.920992 Z-0.125000 I-1303.710130 J279.358169
G03 X109.682486 Y100.204450 Z-0.125000 I1440.615589 J-316.469111
G01 X109.691972 Y100.172298 Z-0.125000
G03 X109.724211 Y100.154986 Z-0.125000 I0.044893 J0.044927
G03 X116.728471 Y98.741587 Z-0.125000 I489.676067 J2408.583809
G02 X123.737674 Y97.337310 Z-0.125000 I-10587.118550 J-52862.010773
G02 X123.752388 Y97.334019 Z-0.125000 I-0.066597 J-0.332294
G01 X123.755517 Y97.325952 Z-0.125000
G02 X119.781312 Y91.352355 Z-0.125000 I-3041.936125 J2019.476775
G01 X115.795632 Y85.374510 Z-0.125000
G01 X116.414155 Y84.973021 Z-0.125000
G03 X117.033868 Y84.573266 Z-0.125000 I70.335333 J108.355887
G03 X120.356472 Y82.445913 Z-0.125000 I1967.817039 J3069.774143
G01 X125.576948 Y79.107288 Z-0.125000
G02 X127.423363 Y77.889158 Z-0.125000 I-41.984551 J-65.647698
G01 X127.426671 Y77.848900 Z-0.125000
G02 X127.048215 Y77.551766 Z-0.125000 I-1.737223 J1.823093
G02 X116.036032 Y70.548863 Z-0.125000 I-1004.011933 J1566.665708
G01 X115.790465 Y70.393839 Z-0.125000
G01 X119.778841 Y64.411950 Z-0.125000
G02 X123.755499 Y58.434389 Z-0.125000 I-2978.573587 J-1985.850416
G01 X123.752388 Y58.426018 Z-0.125000
G02 X123.737646 Y58.422445 Z-0.125000 I-0.052008 J0.182420
G02 X116.728471 Y57.018672 Z-0.125000 I-8281.318730 J41331.223565
G03 X109.724591 Y55.605813 Z-0.125000 I474.694860 J-2371.241953
G03 X109.692197 Y55.588412 Z-0.125000 I0.012705 J-0.062504
G01 X109.682658 Y55.556088 Z-0.125000
G03 X111.141555 Y48.839718 Z-0.125000 I1430.179316 J307.139849
G02 X112.598755 Y42.123779 Z-0.125000 I-1302.364877 J-286.098527
G01 X112.588217 Y42.088103 Z-0.125000
G01 X112.549786 Y42.076765 Z-0.125000
G02 X103.651894 Y44.008598 Z-0.125000 I453.333224 J2109.479868
G03 X99.286972 Y44.960240 Z-0.125000 I-385.694571 J-1758.589505
G03 X99.176654 Y44.978506 Z-0.125000 I-0.240156 J-1.108134
G03 X99.109657 Y44.930539 Z-0.125000 I-0.007022 J-0.060965
G03 X97.670004 Y38.026260 Z-0.125000 I439.520864 J-95.249349
G02 X96.269507 Y31.062673 Z-0.125000 I-4698.056756 J941.237667
G02 X96.249404 Y30.989088 Z-0.125000 I-0.554529 J0.111953
G01 X96.205134 Y30.973950 Z-0.125000
G02 X90.244599 Y34.903322 Z-0.125000 I377.762286 J579.519999
G01 X84.264733 Y38.889674 Z-0.125000
G01 X84.030849 Y38.520988 Z-0.125000
G02 X83.796292 Y38.152623 Z-0.125000 I-98.181708 J62.258573
G02 X80.300172 Y32.686484 Z-0.125000 I-19223.924192 J12291.713033
G02 X76.796437 Y27.232799 Z-0.125000 I-1449.258114 J927.227771
G01 X76.774172 Y27.220667 Z-0.125000
G02 X76.704131 Y27.258929 Z-0.125000 I0.000000 J0.083240
G02 X69.517495 Y38.520988 Z-0.125000 I1963.882889 J1261.132690
G01 X69.283612 Y38.889674 Z-0.125000
G01 X63.303746 Y34.903096 Z-0.125000
G02 X57.349794 Y30.996518 Z-0.125000 I-268.584106 J402.854187
G01 X57.285684 Y31.017621 Z-0.125000
G02 X57.255842 Y31.121428 Z-0.125000 I0.621206 J0.234775
G02 X55.875644 Y38.026260 Z-0.125000 I2813.313384 J565.940110
G03 X54.491192 Y44.927282 Z-0.125000 I-1792.663541 J-356.046630
G03 X54.468749 Y44.970643 Z-0.125000 I-0.087271 J-0.017683
G01 X54.426708 Y44.984217 Z-0.125000
G03 X52.931094 Y44.674301 Z-0.125000 I10.422898 J-54.063324
G02 X41.026363 Y42.067976 Z-0.125000 I-494.279556 J2229.195360
G02 X40.961026 Y42.087205 Z-0.125000 I-0.015031 J0.069543
G01 X40.950205 Y42.123821 Z-0.125000
G02 X42.406790 Y48.839718 Z-0.125000 I1261.629495 J-270.114060
G03 X43.865873 Y55.555989 Z-0.125000 I-1446.923041 J317.854906
G01 X43.856373 Y55.588187 Z-0.125000
G03 X43.824106 Y55.605518 Z-0.125000 I-0.044932 J-0.044952
G03 X36.820099 Y57.018898 Z-0.125000 I-475.843739 J-2339.983718
G02 X29.810928 Y58.422809 Z-0.125000 I12669.927992 J63274.037181
G02 X29.796181 Y58.426242 Z-0.125000 I0.048000 J0.239577
G01 X29.793064 Y58.434469 Z-0.125000
G02 X33.769728 Y64.411950 Z-0.125000 I3002.851272 J-1993.407866
G01 X37.757879 Y70.393839 Z-0.125000
G01 X37.512537 Y70.548863 Z-0.125000
G02 X26.489008 Y77.559724 Z-0.125000 I1009.600958 J1599.618168
G02 X26.121898 Y77.848676 Z-0.125000 I1.302622 J2.032643
G01 X26.126964 Y77.901868 Z-0.125000
G02 X37.425365 Y85.156803 Z-0.125000 I1165.572337 J-1802.767220
G01 X37.756980 Y85.368219 Z-0.125000
G01 X33.769280 Y91.349209 Z-0.125000
G02 X29.793036 Y97.325939 Z-0.125000 I3022.067150 J2014.854448
G01 X29.796181 Y97.334019 Z-0.125000
G02 X29.810836 Y97.337315 Z-0.125000 I0.077665 J-0.311106
G02 X36.820099 Y98.741587 Z-0.125000 I10875.771330 J-54267.055947
G03 X43.824152 Y100.154988 Z-0.125000 I-480.696564 J2400.134750
G03 X43.856373 Y100.172298 Z-0.125000 I-0.012640 J0.062171
G01 X43.865859 Y100.204450 Z-0.125000
G03 X42.406790 Y106.920992 Z-0.125000 I-1442.074658 J-309.752569
G02 X40.949812 Y113.636936 Z-0.125000 I1286.410221 J282.593845
G01 X40.960352 Y113.672606 Z-0.125000
G01 X40.998785 Y113.683945 Z-0.125000
G02 X49.896675 Y111.751887 Z-0.125000 I-458.693971 J-2133.921915
G03 X54.261578 Y110.800247 Z-0.125000 I385.594382 J1758.125853
G03 X54.371915 Y110.781979 Z-0.125000 I0.240147 J1.108092
G03 X54.438912 Y110.829944 Z-0.125000 I0.007024 J0.060962
G03 X55.878565 Y117.734225 Z-0.125000 I-439.522056 J95.249574
G02 X57.278839 Y124.698036 Z-0.125000 I4965.598180 J-994.853737
G02 X57.298940 Y124.771622 Z-0.125000 I0.554183 J-0.111839
G01 X57.343198 Y124.786761 Z-0.125000
G02 X63.303746 Y120.857389 Z-0.125000 I-377.777999 J-579.545011
G01 X69.283612 Y116.870811 Z-0.125000
G01 X69.517495 Y117.239722 Z-0.125000
G02 X76.704131 Y128.501781 Z-0.125000 I1971.456076 J-1250.117349
G02 X76.774172 Y128.540043 Z-0.125000 I0.070042 J-0.044978
G01 X76.774172 Y128.540043 Z-0.125000
G00 Z5.000000

(End cutting path id: path250)


(Start cutting path id: path250)
(Change tool to Default tool)

G00 Z5.000000
G00 X76.769679 Y125.491920

G01 Z-0.125000 F100.0(Penetrate)
G01 X76.127567 Y124.488760 Z-0.125000 F400.000000
G03 X75.485729 Y123.485380 Z-0.125000 I2503.121526 J-1601.894763
G03 X75.097895 Y122.878537 Z-0.125000 I1453.153760 J-929.137981
G02 X73.500912 Y120.380625 Z-0.125000 I-3287.843697 J2100.246885
G02 X70.817447 Y116.188707 Z-0.125000 I-10213.811577 J6535.447537
G02 X69.799243 Y114.631871 Z-0.125000 I-81.830100 J52.407239
G01 X69.765533 Y114.613532 Z-0.125000
G02 X69.725584 Y114.625238 Z-0.125000 I-0.001016 J0.070556
G02 X64.080886 Y118.374091 Z-0.125000 I1044.122479 J1578.273232
G03 X58.442988 Y122.119814 Z-0.125000 I-1160.244062 J-1740.232858
G01 X58.427917 Y122.116674 Z-0.125000
G03 X58.419844 Y122.096750 Z-0.125000 I0.048406 J-0.031210
G03 X57.095837 Y115.451109 Z-0.125000 I5752.930612 J-1149.607648
G02 X55.770451 Y108.806349 Z-0.125000 I-4125.441625 J819.419484
G01 X55.760836 Y108.785769 Z-0.125000
G01 X55.733167 Y108.775958 Z-0.125000
G02 X45.591064 Y110.993844 Z-0.125000 I735.123847 J3385.924027
G03 X43.109115 Y111.534927 Z-0.125000 I-127.638383 J-579.514188
G01 X43.100577 Y111.531034 Z-0.125000
G01 X43.099019 Y111.520163 Z-0.125000
G03 X44.471075 Y105.278191 Z-0.125000 I5160.924200 J1131.157187
G02 X45.831796 Y99.035152 Z-0.125000 I-1314.682848 J-289.815690
G02 X45.834159 Y98.951657 Z-0.125000 I-0.223219 J-0.048098
G02 X45.786228 Y98.901056 Z-0.125000 I-0.060676 J0.009474
G02 X39.156910 Y97.535100 Z-0.125000 I-120.279611 J566.976105
G01 X32.492918 Y96.202347 Z-0.125000
G01 X36.254150 Y90.577012 Z-0.125000
G02 X40.007644 Y84.948339 Z-0.125000 I-2251.306794 J-1505.354931
G02 X40.028638 Y84.901126 Z-0.125000 I-0.128299 J-0.085325
G01 X40.013375 Y84.861470 Z-0.125000
G02 X37.642847 Y83.314943 Z-0.125000 I-90.105074 J135.523650
G02 X35.243922 Y81.779742 Z-0.125000 I-9286.710435 J14511.166291
G02 X32.197250 Y79.830731 Z-0.125000 I-11502.751364 J17974.871717
G01 X29.150475 Y77.882153 Z-0.125000
G01 X29.596224 Y77.594573 Z-0.125000
G03 X30.042441 Y77.307831 Z-0.125000 I84.006678 J130.237596
G03 X35.041596 Y74.108564 Z-0.125000 I9850.598510 J15386.990114
G02 X40.012495 Y70.898495 Z-0.125000 I-373.055741 J-583.143151
G01 X40.028188 Y70.858235 Z-0.125000
G02 X40.006790 Y70.810223 Z-0.125000 I-0.152636 J0.039253
G02 X36.253926 Y65.182350 Z-0.125000 I-2149.006863 J1428.967964
G01 X32.492694 Y59.558138 Z-0.125000
G01 X39.156910 Y58.225610 Z-0.125000
G02 X45.786265 Y56.859650 Z-0.125000 I-113.642836 J-568.308003
G02 X45.834159 Y56.809054 Z-0.125000 I-0.012733 J-0.060019
G02 X45.831756 Y56.725557 Z-0.125000 I-0.226233 J-0.035271
G02 X44.471075 Y50.482518 Z-0.125000 I-1312.607922 J282.815288
G03 X43.099010 Y44.240551 Z-0.125000 I5173.192979 J-1140.406215
G01 X43.100577 Y44.229676 Z-0.125000
G01 X43.109084 Y44.225780 Z-0.125000
G03 X45.591064 Y44.766642 Z-0.125000 I-120.112482 J557.154231
G02 X55.733283 Y46.984736 Z-0.125000 I753.959511 J-3423.176717
G01 X55.761061 Y46.974941 Z-0.125000
G01 X55.770722 Y46.954334 Z-0.125000
G02 X57.095613 Y40.309376 Z-0.125000 I-4260.979557 J-853.020952
G03 X58.419469 Y33.664024 Z-0.125000 I5372.879142 J1066.905470
G03 X58.427691 Y33.644035 Z-0.125000 I0.055250 J0.011042
G01 X58.442914 Y33.640928 Z-0.125000
G03 X64.080886 Y37.386620 Z-0.125000 I-1147.852230 J1733.849497
G02 X69.725580 Y41.135454 Z-0.125000 I1048.737888 J-1572.981445
G02 X69.765533 Y41.146953 Z-0.125000 I0.038288 J-0.057876
G01 X69.799169 Y41.128377 Z-0.125000
G02 X71.482251 Y38.531323 Z-0.125000 I-221.733017 J-145.543185
G03 X73.155483 Y35.916791 Z-0.125000 I12638.366170 J8086.365158
G03 X73.655502 Y35.136306 Z-0.125000 I1034.617818 J662.279757
G02 X76.147958 Y31.242541 Z-0.125000 I-2580.394105 J-1654.492842
G02 X76.487267 Y30.705102 Z-0.125000 I-48.751229 J-31.154575
G03 X76.753173 Y30.359414 Z-0.125000 I1.890299 J1.178921
G01 X76.812591 Y30.358434 Z-0.125000
G03 X76.894527 Y30.459754 Z-0.125000 I-0.432329 J0.433407
G03 X79.375199 Y34.327038 Z-0.125000 I-634.698046 J409.856814
G02 X80.006286 Y35.315480 Z-0.125000 I535.970941 J-341.503704
G02 X82.730897 Y39.572002 Z-0.125000 I8903.402567 J-5696.089211
G02 X83.749084 Y41.128401 Z-0.125000 I80.719784 J-51.695145
G01 X83.782811 Y41.146953 Z-0.125000
G02 X83.822741 Y41.135254 Z-0.125000 I0.001016 J-0.070528
G02 X89.467459 Y37.386620 Z-0.125000 I-1027.796053 J-1553.786232
G03 X95.105357 Y33.640896 Z-0.125000 I1159.281180 J1738.783166
G01 X95.120428 Y33.644035 Z-0.125000
G03 X95.128512 Y33.663957 Z-0.125000 I-0.048260 J0.031185
G03 X96.452732 Y40.309376 Z-0.125000 I-5378.116922 J1075.141667
G02 X97.777894 Y46.954359 Z-0.125000 I4351.639535 J-864.361936
G01 X97.787508 Y46.974941 Z-0.125000
G01 X97.813135 Y46.984024 Z-0.125000
G02 X108.737791 Y44.594768 Z-0.125000 I-927.712738 J-4268.052940
G03 X110.439271 Y44.226032 Z-0.125000 I58.871293 J267.543665
G01 X110.447768 Y44.229900 Z-0.125000
G01 X110.449279 Y44.240644 Z-0.125000
G03 X109.077270 Y50.482518 Z-0.125000 I-5155.516330 J-1129.947886
G02 X107.716549 Y56.725551 Z-0.125000 I1314.736024 J289.827412
G02 X107.714186 Y56.809054 Z-0.125000 I0.223250 J0.048104
G02 X107.762115 Y56.859652 Z-0.125000 I0.060673 J-0.009474
G02 X114.391433 Y58.225610 Z-0.125000 I120.288919 J-567.020702
G01 X121.055651 Y59.558138 Z-0.125000
G01 X117.294194 Y65.183473 Z-0.125000
G02 X113.541007 Y70.812312 Z-0.125000 I2162.396260 J1445.904704
G02 X113.519931 Y70.859808 Z-0.125000 I0.128518 J0.085452
G01 X113.535476 Y70.899641 Z-0.125000
G02 X117.784203 Y73.646863 Z-0.125000 I280.070576 J-428.485229
G03 X122.061296 Y76.382915 Z-0.125000 I-22380.137707 J34990.979009
G03 X123.227329 Y77.129276 Z-0.125000 I-1749.452509 J2734.418263
G03 X124.298178 Y77.877542 Z-0.125000 I-8.740117 J13.648432
G01 X124.296767 Y77.942814 Z-0.125000
G03 X124.160080 Y78.033976 Z-0.125000 I-2.478088 J-3.567548
G03 X115.141613 Y83.801582 Z-0.125000 I-9691.254825 J-15143.712045
G02 X113.531817 Y84.873855 Z-0.125000 I27.521247 J43.062007
G01 X113.520830 Y84.926065 Z-0.125000
G02 X113.561097 Y84.989006 Z-0.125000 I1.617946 J-0.990742
G02 X117.307675 Y90.596109 Z-0.125000 I12852.190165 J-8583.575769
G01 X121.055426 Y96.202347 Z-0.125000
G01 X114.391433 Y97.535100 Z-0.125000
G02 X107.762083 Y98.901056 Z-0.125000 I113.673856 J568.459246
G02 X107.714186 Y98.951657 Z-0.125000 I0.012733 J0.060023
G02 X107.716588 Y99.035145 Z-0.125000 I0.226201 J0.035269
G02 X109.077270 Y105.278191 Z-0.125000 I1312.555029 J-282.803620
G03 X110.449337 Y111.520182 Z-0.125000 I-5197.107319 J1145.660607
G01 X110.447768 Y111.531034 Z-0.125000
G01 X110.439237 Y111.534936 Z-0.125000
G03 X107.957280 Y110.993844 Z-0.125000 I125.216974 J-580.325303
G02 X97.815280 Y108.775943 Z-0.125000 I-747.053555 J3391.824224
G01 X97.787733 Y108.785769 Z-0.125000
G01 X97.778188 Y108.806311 Z-0.125000
G02 X96.452508 Y115.451109 Z-0.125000 I4207.784210 J842.934597
G03 X95.128080 Y122.096851 Z-0.125000 I-5719.834925 J-1136.449212
G03 X95.120204 Y122.116674 Z-0.125000 I-0.058127 J-0.011619
G01 X95.105357 Y122.119862 Z-0.125000
G03 X89.467459 Y118.374091 Z-0.125000 I1157.705072 J-1748.620166
G02 X83.822740 Y114.625336 Z-0.125000 I-1041.777889 J1562.541409
G02 X83.782811 Y114.613532 Z-0.125000 I-0.039246 J0.059327
G01 X83.749165 Y114.631905 Z-0.125000
G02 X82.066319 Y117.228938 Z-0.125000 I221.748896 J145.534392
G03 X80.393136 Y119.843848 Z-0.125000 I-13733.674255 J-8786.067379
G03 X79.893067 Y120.624404 Z-0.125000 I-833.301668 J-533.307078
G02 X79.392829 Y121.404823 Z-0.125000 I1663.452712 J1066.787555
G02 X78.449102 Y122.878537 Z-0.125000 I3675.379209 J2354.692719
G03 X77.504853 Y124.351887 Z-0.125000 I-1285.080433 J-822.550252
G03 X77.137691 Y124.922152 Z-0.125000 I-187.614194 J-120.391034
G01 X76.769679 Y125.491920 Z-0.125000
G00 Z5.000000

(End cutting path id: path250)


(Start cutting path id: path250)
(Change tool to Default tool)

G00 Z5.000000
G00 X76.769679 Y125.491920

G01 Z-0.125000 F100.0(Penetrate)
G01 X76.127567 Y124.488760 Z-0.125000 F400.000000
G03 X75.485729 Y123.485380 Z-0.125000 I2503.121526 J-1601.894763
G03 X75.097895 Y122.878537 Z-0.125000 I1453.153760 J-929.137981
G02 X73.500912 Y120.380625 Z-0.125000 I-3287.843697 J2100.246885
G02 X70.817447 Y116.188707 Z-0.125000 I-10213.811577 J6535.447537
G02 X69.799243 Y114.631871 Z-0.125000 I-81.830100 J52.407239
G01 X69.765533 Y114.613532 Z-0.125000
G02 X69.725584 Y114.625238 Z-0.125000 I-0.001016 J0.070556
G02 X64.080886 Y118.374091 Z-0.125000 I1044.122479 J1578.273232
G03 X58.442988 Y122.119814 Z-0.125000 I-1160.244062 J-1740.232858
G01 X58.427917 Y122.116674 Z-0.125000
G03 X58.419844 Y122.096750 Z-0.125000 I0.048406 J-0.031210
G03 X57.095837 Y115.451109 Z-0.125000 I5752.930612 J-1149.607648
G02 X55.770451 Y108.806349 Z-0.125000 I-4125.441625 J819.419484
G01 X55.760836 Y108.785769 Z-0.125000
G01 X55.733167 Y108.775958 Z-0.125000
G02 X45.591064 Y110.993844 Z-0.125000 I735.123847 J3385.924027
G03 X43.109115 Y111.534927 Z-0.125000 I-127.638383 J-579.514188
G01 X43.100577 Y111.531034 Z-0.125000
G01 X43.099019 Y111.520163 Z-0.125000
G03 X44.471075 Y105.278191 Z-0.125000 I5160.924200 J1131.157187
G02 X45.831796 Y99.035152 Z-0.125000 I-1314.682848 J-289.815690
G02 X45.834159 Y98.951657 Z-0.125000 I-0.223219 J-0.048098
G02 X45.786228 Y98.901056 Z-0.125000 I-0.060676 J0.009474
G02 X39.156910 Y97.535100 Z-0.125000 I-120.279611 J566.976105
G01 X32.492918 Y96.202347 Z-0.125000
G01 X36.254150 Y90.577012 Z-0.125000
G02 X40.007644 Y84.948339 Z-0.125000 I-2251.306794 J-1505.354931
G02 X40.028638 Y84.901126 Z-0.125000 I-0.128299 J-0.085325
G01 X40.013375 Y84.861470 Z-0.125000
G02 X37.642847 Y83.314943 Z-0.125000 I-90.105074 J135.523650
G02 X35.243922 Y81.779742 Z-0.125000 I-9286.710435 J14511.166291
G02 X32.197250 Y79.830731 Z-0.125000 I-11502.751364 J17974.871717
G01 X29.150475 Y77.882153 Z-0.125000
G01 X29.596224 Y77.594573 Z-0.125000
G03 X30.042441 Y77.307831 Z-0.125000 I84.006678 J130.237596
G03 X35.041596 Y74.108564 Z-0.125000 I9850.598510 J15386.990114
G02 X40.012495 Y70.898495 Z-0.125000 I-373.055741 J-583.143151
G01 X40.028188 Y70.858235 Z-0.125000
G02 X40.006790 Y70.810223 Z-0.125000 I-0.152636 J0.039253
G02 X36.253926 Y65.182350 Z-0.125000 I-2149.006863 J1428.967964
G01 X32.492694 Y59.558138 Z-0.125000
G01 X39.156910 Y58.225610 Z-0.125000
G02 X45.786265 Y56.859650 Z-0.125000 I-113.642836 J-568.308003
G02 X45.834159 Y56.809054 Z-0.125000 I-0.012733 J-0.060019
G02 X45.831756 Y56.725557 Z-0.125000 I-0.226233 J-0.035271
G02 X44.471075 Y50.482518 Z-0.125000 I-1312.607922 J282.815288
G03 X43.099010 Y44.240551 Z-0.125000 I5173.192979 J-1140.406215
G01 X43.100577 Y44.229676 Z-0.125000
G01 X43.109084 Y44.225780 Z-0.125000
G03 X45.591064 Y44.766642 Z-0.125000 I-120.112482 J557.154231
G02 X55.733283 Y46.984736 Z-0.125000 I753.959511 J-3423.176717
G01 X55.761061 Y46.974941 Z-0.125000
G01 X55.770722 Y46.954334 Z-0.125000
G02 X57.095613 Y40.309376 Z-0.125000 I-4260.979557 J-853.020952
G03 X58.419469 Y33.664024 Z-0.125000 I5372.879142 J1066.905470
G03 X58.427691 Y33.644035 Z-0.125000 I0.055250 J0.011042
G01 X58.442914 Y33.640928 Z-0.125000
G03 X64.080886 Y37.386620 Z-0.125000 I-1147.852230 J1733.849497
G02 X69.725580 Y41.135454 Z-0.125000 I1048.737888 J-1572.981445
G02 X69.765533 Y41.146953 Z-0.125000 I0.038288 J-0.057876
G01 X69.799169 Y41.128377 Z-0.125000
G02 X71.482251 Y38.531323 Z-0.125000 I-221.733017 J-145.543185
G03 X73.155483 Y35.916791 Z-0.125000 I12638.366170 J8086.365158
G03 X73.655502 Y35.136306 Z-0.125000 I1034.617818 J662.279757
G02 X76.147958 Y31.242541 Z-0.125000 I-2580.394105 J-1654.492842
G02 X76.487267 Y30.705102 Z-0.125000 I-48.751229 J-31.154575
G03 X76.753173 Y30.359414 Z-0.125000 I1.890299 J1.178921
G01 X76.812591 Y30.358434 Z-0.125000
G03 X76.894527 Y30.459754 Z-0.125000 I-0.432329 J0.433407
G03 X79.375199 Y34.327038 Z-0.125000 I-634.698046 J409.856814
G02 X80.006286 Y35.315480 Z-0.125000 I535.970941 J-341.503704
G02 X82.730897 Y39.572002 Z-0.125000 I8903.402567 J-5696.089211
G02 X83.749084 Y41.128401 Z-0.125000 I80.719784 J-51.695145
G01 X83.782811 Y41.146953 Z-0.125000
G02 X83.822741 Y41.135254 Z-0.125000 I0.001016 J-0.070528
G02 X89.467459 Y37.386620 Z-0.125000 I-1027.796053 J-1553.786232
G03 X95.105357 Y33.640896 Z-0.125000 I1159.281180 J1738.783166
G01 X95.120428 Y33.644035 Z-0.125000
G03 X95.128512 Y33.663957 Z-0.125000 I-0.048260 J0.031185
G03 X96.452732 Y40.309376 Z-0.125000 I-5378.116922 J1075.141667
G02 X97.777894 Y46.954359 Z-0.125000 I4351.639535 J-864.361936
G01 X97.787508 Y46.974941 Z-0.125000
G01 X97.813135 Y46.984024 Z-0.125000
G02 X108.737791 Y44.594768 Z-0.125000 I-927.712738 J-4268.052940
G03 X110.439271 Y44.226032 Z-0.125000 I58.871293 J267.543665
G01 X110.447768 Y44.229900 Z-0.125000
G01 X110.449279 Y44.240644 Z-0.125000
G03 X109.077270 Y50.482518 Z-0.125000 I-5155.516330 J-1129.947886
G02 X107.716549 Y56.725551 Z-0.125000 I1314.736024 J289.827412
G02 X107.714186 Y56.809054 Z-0.125000 I0.223250 J0.048104
G02 X107.762115 Y56.859652 Z-0.125000 I0.060673 J-0.009474
G02 X114.391433 Y58.225610 Z-0.125000 I120.288919 J-567.020702
G01 X121.055651 Y59.558138 Z-0.125000
G01 X117.294194 Y65.183473 Z-0.125000
G02 X113.541007 Y70.812312 Z-0.125000 I2162.396260 J1445.904704
G02 X113.519931 Y70.859808 Z-0.125000 I0.128518 J0.085452
G01 X113.535476 Y70.899641 Z-0.125000
G02 X117.784203 Y73.646863 Z-0.125000 I280.070576 J-428.485229
G03 X122.061296 Y76.382915 Z-0.125000 I-22380.137707 J34990.979009
G03 X123.227329 Y77.129276 Z-0.125000 I-1749.452509 J2734.418263
G03 X124.298178 Y77.877542 Z-0.125000 I-8.740117 J13.648432
G01 X124.296767 Y77.942814 Z-0.125000
G03 X124.160080 Y78.033976 Z-0.125000 I-2.478088 J-3.567548
G03 X115.141613 Y83.801582 Z-0.125000 I-9691.254825 J-15143.712045
G02 X113.531817 Y84.873855 Z-0.125000 I27.521247 J43.062007
G01 X113.520830 Y84.926065 Z-0.125000
G02 X113.561097 Y84.989006 Z-0.125000 I1.617946 J-0.990742
G02 X117.307675 Y90.596109 Z-0.125000 I12852.190165 J-8583.575769
G01 X121.055426 Y96.202347 Z-0.125000
G01 X114.391433 Y97.535100 Z-0.125000
G02 X107.762083 Y98.901056 Z-0.125000 I113.673856 J568.459246
G02 X107.714186 Y98.951657 Z-0.125000 I0.012733 J0.060023
G02 X107.716588 Y99.035145 Z-0.125000 I0.226201 J0.035269
G02 X109.077270 Y105.278191 Z-0.125000 I1312.555029 J-282.803620
G03 X110.449337 Y111.520182 Z-0.125000 I-5197.107319 J1145.660607
G01 X110.447768 Y111.531034 Z-0.125000
G01 X110.439237 Y111.534936 Z-0.125000
G03 X107.957280 Y110.993844 Z-0.125000 I125.216974 J-580.325303
G02 X97.815280 Y108.775943 Z-0.125000 I-747.053555 J3391.824224
G01 X97.787733 Y108.785769 Z-0.125000
G01 X97.778188 Y108.806311 Z-0.125000
G02 X96.452508 Y115.451109 Z-0.125000 I4207.784210 J842.934597
G03 X95.128080 Y122.096851 Z-0.125000 I-5719.834925 J-1136.449212
G03 X95.120204 Y122.116674 Z-0.125000 I-0.058127 J-0.011619
G01 X95.105357 Y122.119862 Z-0.125000
G03 X89.467459 Y118.374091 Z-0.125000 I1157.705072 J-1748.620166
G02 X83.822740 Y114.625336 Z-0.125000 I-1041.777889 J1562.541409
G02 X83.782811 Y114.613532 Z-0.125000 I-0.039246 J0.059327
G01 X83.749165 Y114.631905 Z-0.125000
G02 X82.066319 Y117.228938 Z-0.125000 I221.748896 J145.534392
G03 X80.393136 Y119.843848 Z-0.125000 I-13733.674255 J-8786.067379
G03 X79.893067 Y120.624404 Z-0.125000 I-833.301668 J-533.307078
G02 X79.392829 Y121.404823 Z-0.125000 I1663.452712 J1066.787555
G02 X78.449102 Y122.878537 Z-0.125000 I3675.379209 J2354.692719
G03 X77.504853 Y124.351887 Z-0.125000 I-1285.080433 J-822.550252
G03 X77.137691 Y124.922152 Z-0.125000 I-187.614194 J-120.391034
G01 X76.769679 Y125.491920 Z-0.125000
G00 Z5.000000

(End cutting path id: path250)


(Start cutting path id: path250)
(Change tool to Default tool)

G00 Z5.000000
G00 X76.773948 Y125.017184

G01 Z-0.125000 F100.0(Penetrate)
G01 X76.805001 Y125.000602 Z-0.125000 F400.000000
G02 X77.673310 Y123.673422 Z-0.125000 I-63.001654 J-42.166537
G03 X80.522404 Y119.221069 Z-0.125000 I6203.404494 J3966.468725
G03 X81.051251 Y118.399025 Z-0.125000 I199.208222 J127.575664
G02 X83.465394 Y114.638124 Z-0.125000 I-611.966790 J-395.480163
G02 X83.479055 Y114.591286 Z-0.125000 I-0.073461 J-0.046838
G02 X83.347484 Y114.478288 Z-0.125000 I-0.114309 J0.000000
G02 X81.522387 Y114.890100 Z-0.125000 I2.010474 J13.160360
G02 X81.424021 Y114.974073 Z-0.125000 I0.046278 J0.153810
G02 X79.255898 Y119.583944 Z-0.125000 I225.140435 J108.703241
G03 X77.121379 Y124.235241 Z-0.125000 I-2902.006844 J-1328.939775
G03 X76.946046 Y124.606709 Z-0.125000 I-18.738323 J-8.617366
G01 X76.766983 Y124.976294 Z-0.125000
G01 X74.464545 Y119.953754 Z-0.125000
G02 X72.124692 Y114.974242 Z-0.125000 I-263.847188 J120.941251
G02 X72.026182 Y114.890100 Z-0.125000 I-0.144705 J0.069678
G02 X70.200825 Y114.479163 Z-0.125000 I-3.829981 J12.753015
G02 X70.069290 Y114.592184 Z-0.125000 I-0.017211 J0.113021
G01 X70.073308 Y114.605962 Z-0.125000
G02 X72.300955 Y118.092572 Z-0.125000 I1777.866864 J-1133.450719
G03 X74.532622 Y121.578213 Z-0.125000 I-47660.378246 J30526.014918
G03 X75.633288 Y123.297771 Z-0.125000 I-11263.847908 J7210.011521
G02 X76.742924 Y125.000537 Z-0.125000 I103.675008 J-66.348586
G01 X76.773948 Y125.017184 Z-0.125000
G01 X76.773948 Y125.017184 Z-0.125000
G00 Z5.000000

(End cutting path id: path250)


(Start cutting path id: path250)
(Change tool to Default tool)

G00 Z5.000000
G00 X76.773948 Y125.017184

G01 Z-0.125000 F100.0(Penetrate)
G01 X76.805001 Y125.000602 Z-0.125000 F400.000000
G02 X77.673310 Y123.673422 Z-0.125000 I-63.001654 J-42.166537
G03 X80.522404 Y119.221069 Z-0.125000 I6203.404494 J3966.468725
G03 X81.051251 Y118.399025 Z-0.125000 I199.208222 J127.575664
G02 X83.465394 Y114.638124 Z-0.125000 I-611.966790 J-395.480163
G02 X83.479055 Y114.591286 Z-0.125000 I-0.073461 J-0.046838
G02 X83.347484 Y114.478288 Z-0.125000 I-0.114309 J0.000000
G02 X81.522387 Y114.890100 Z-0.125000 I2.010474 J13.160360
G02 X81.424021 Y114.974073 Z-0.125000 I0.046278 J0.153810
G02 X79.255898 Y119.583944 Z-0.125000 I225.140435 J108.703241
G03 X77.121379 Y124.235241 Z-0.125000 I-2902.006844 J-1328.939775
G03 X76.946046 Y124.606709 Z-0.125000 I-18.738323 J-8.617366
G01 X76.766983 Y124.976294 Z-0.125000
G01 X74.464545 Y119.953754 Z-0.125000
G02 X72.124692 Y114.974242 Z-0.125000 I-263.847188 J120.941251
G02 X72.026182 Y114.890100 Z-0.125000 I-0.144705 J0.069678
G02 X70.200825 Y114.479163 Z-0.125000 I-3.829981 J12.753015
G02 X70.069290 Y114.592184 Z-0.125000 I-0.017211 J0.113021
G01 X70.073308 Y114.605962 Z-0.125000
G02 X72.300955 Y118.092572 Z-0.125000 I1777.866864 J-1133.450719
G03 X74.532622 Y121.578213 Z-0.125000 I-47660.378246 J30526.014918
G03 X75.633288 Y123.297771 Z-0.125000 I-11263.847908 J7210.011521
G02 X76.742924 Y125.000537 Z-0.125000 I103.675008 J-66.348586
G01 X76.773948 Y125.017184 Z-0.125000
G01 X76.773948 Y125.017184 Z-0.125000
G00 Z5.000000

(End cutting path id: path250)


(Start cutting path id: path250)
(Change tool to Default tool)

G00 Z5.000000
G00 X76.775098 Y124.381363

G01 Z-0.125000 F100.0(Penetrate)
G01 X76.799592 Y124.366087 Z-0.125000 F400.000000
G02 X77.263536 Y123.384269 Z-0.125000 I-34.701453 J-16.998210
G03 X77.718730 Y122.387716 Z-0.125000 I465.709223 J212.119215
G03 X78.435199 Y120.826605 Z-0.125000 I1068.285052 J489.342115
G02 X79.152592 Y119.265868 Z-0.125000 I-5147.216794 J-2366.879401
G02 X79.762785 Y117.936650 Z-0.125000 I-1992.450154 J-915.460882
G03 X80.373020 Y116.607375 Z-0.125000 I2012.448726 J923.059739
G03 X80.741006 Y115.807660 Z-0.125000 I720.957484 J331.260422
G02 X81.101093 Y115.006316 Z-0.125000 I-41.886098 J-19.303269
G02 X81.109244 Y114.967386 Z-0.125000 I-0.088889 J-0.038929
G01 X81.089487 Y114.948434 Z-0.125000
G02 X80.372320 Y114.997942 Z-0.125000 I0.546764 J13.139436
G03 X79.634816 Y115.061437 Z-0.125000 I-3.429490 J-35.519681
G03 X78.898473 Y115.109380 Z-0.125000 I-2.652937 J-35.067029
G02 X78.169446 Y115.157027 Z-0.125000 I1.853690 J33.963437
G01 X78.161549 Y115.165547 Z-0.125000
G01 X78.165272 Y115.180610 Z-0.125000
G02 X78.598985 Y115.996383 Z-0.125000 I100.158894 J-52.727175
G01 X79.036420 Y116.811269 Z-0.125000
G01 X77.955974 Y119.426000 Z-0.125000
G03 X76.870519 Y122.038192 Z-0.125000 I-668.753415 J-276.358313
G03 X76.816213 Y122.153966 Z-0.125000 I-1.378219 J-0.575859
G01 X76.762602 Y122.177991 Z-0.125000
G03 X76.704552 Y122.125882 Z-0.125000 I0.020425 J-0.081143
G02 X76.649689 Y121.985396 Z-0.125000 I-3.918909 J1.449452
G02 X75.582091 Y119.397916 Z-0.125000 I-1337.737534 J550.438531
G01 X74.511978 Y116.811269 Z-0.125000
G01 X74.949415 Y115.996383 Z-0.125000
G02 X75.383350 Y115.180610 Z-0.125000 I-105.778685 J-56.790244
G01 X75.387076 Y115.165547 Z-0.125000
G01 X75.379180 Y115.157027 Z-0.125000
G02 X74.650151 Y115.109380 Z-0.125000 I-2.583109 J33.921979
G03 X73.913698 Y115.061438 Z-0.125000 I1.918639 J-35.153238
G03 X73.176080 Y114.997942 Z-0.125000 I2.689289 J-35.557438
G02 X72.457455 Y114.946979 Z-0.125000 I-1.361206 J14.101922
G01 X72.439156 Y114.964466 Z-0.125000
G02 X72.448284 Y115.006549 Z-0.125000 I0.101574 J0.000000
G02 X74.515799 Y119.526204 Z-0.125000 I1226.111877 J-558.151863
G03 X74.900645 Y120.364480 Z-0.125000 I-888.517571 J408.417534
G03 X75.820917 Y122.372796 Z-0.125000 I-4181.108281 J1917.141152
G02 X76.750668 Y124.365922 Z-0.125000 I142.285614 J-65.159823
G01 X76.775098 Y124.381363 Z-0.125000
G01 X76.775098 Y124.381363 Z-0.125000
G00 Z5.000000

(End cutting path id: path250)


(Start cutting path id: path250)
(Change tool to Default tool)

G00 Z5.000000
G00 X76.775098 Y124.381363

G01 Z-0.125000 F100.0(Penetrate)
G01 X76.799592 Y124.366087 Z-0.125000 F400.000000
G02 X77.263536 Y123.384269 Z-0.125000 I-34.701453 J-16.998210
G03 X77.718730 Y122.387716 Z-0.125000 I465.709223 J212.119215
G03 X78.435199 Y120.826605 Z-0.125000 I1068.285052 J489.342115
G02 X79.152592 Y119.265868 Z-0.125000 I-5147.216794 J-2366.879401
G02 X79.762785 Y117.936650 Z-0.125000 I-1992.450154 J-915.460882
G03 X80.373020 Y116.607375 Z-0.125000 I2012.448726 J923.059739
G03 X80.741006 Y115.807660 Z-0.125000 I720.957484 J331.260422
G02 X81.101093 Y115.006316 Z-0.125000 I-41.886098 J-19.303269
G02 X81.109244 Y114.967386 Z-0.125000 I-0.088889 J-0.038929
G01 X81.089487 Y114.948434 Z-0.125000
G02 X80.372320 Y114.997942 Z-0.125000 I0.546764 J13.139436
G03 X79.634816 Y115.061437 Z-0.125000 I-3.429490 J-35.519681
G03 X78.898473 Y115.109380 Z-0.125000 I-2.652937 J-35.067029
G02 X78.169446 Y115.157027 Z-0.125000 I1.853690 J33.963437
G01 X78.161549 Y115.165547 Z-0.125000
G01 X78.165272 Y115.180610 Z-0.125000
G02 X78.598985 Y115.996383 Z-0.125000 I100.158894 J-52.727175
G01 X79.036420 Y116.811269 Z-0.125000
G01 X77.955974 Y119.426000 Z-0.125000
G03 X76.870519 Y122.038192 Z-0.125000 I-668.753415 J-276.358313
G03 X76.816213 Y122.153966 Z-0.125000 I-1.378219 J-0.575859
G01 X76.762602 Y122.177991 Z-0.125000
G03 X76.704552 Y122.125882 Z-0.125000 I0.020425 J-0.081143
G02 X76.649689 Y121.985396 Z-0.125000 I-3.918909 J1.449452
G02 X75.582091 Y119.397916 Z-0.125000 I-1337.737534 J550.438531
G01 X74.511978 Y116.811269 Z-0.125000
G01 X74.949415 Y115.996383 Z-0.125000
G02 X75.383350 Y115.180610 Z-0.125000 I-105.778685 J-56.790244
G01 X75.387076 Y115.165547 Z-0.125000
G01 X75.379180 Y115.157027 Z-0.125000
G02 X74.650151 Y115.109380 Z-0.125000 I-2.583109 J33.921979
G03 X73.913698 Y115.061438 Z-0.125000 I1.918639 J-35.153238
G03 X73.176080 Y114.997942 Z-0.125000 I2.689289 J-35.557438
G02 X72.457455 Y114.946979 Z-0.125000 I-1.361206 J14.101922
G01 X72.439156 Y114.964466 Z-0.125000
G02 X72.448284 Y115.006549 Z-0.125000 I0.101574 J0.000000
G02 X74.515799 Y119.526204 Z-0.125000 I1226.111877 J-558.151863
G03 X74.900645 Y120.364480 Z-0.125000 I-888.517571 J408.417534
G03 X75.820917 Y122.372796 Z-0.125000 I-4181.108281 J1917.141152
G02 X76.750668 Y124.365922 Z-0.125000 I142.285614 J-65.159823
G01 X76.775098 Y124.381363 Z-0.125000
G01 X76.775098 Y124.381363 Z-0.125000
G00 Z5.000000

(End cutting path id: path250)


(Start cutting path id: path250)
(Change tool to Default tool)

G00 Z5.000000
G00 X82.288547 Y124.380684

G01 Z-0.125000 F100.0(Penetrate)
G03 X82.091049 Y124.353514 Z-0.125000 I0.004020 J-0.760603 F400.000000
G03 X81.888855 Y124.265428 Z-0.125000 I0.205409 J-0.747596
G03 X81.523603 Y123.600751 Z-0.125000 I0.404949 J-0.655222
G03 X81.904807 Y122.969071 Z-0.125000 I0.728795 J0.008947
G03 X82.290492 Y122.866668 Z-0.125000 I0.404226 J0.744943
G03 X82.668242 Y122.952445 Z-0.125000 I0.017456 J0.797789
G03 X82.963659 Y123.226518 Z-0.125000 I-0.329779 J0.651711
G03 X83.074449 Y123.624214 Z-0.125000 I-0.658403 J0.397696
G03 X82.823597 Y124.179802 Z-0.125000 I-0.742398 J-0.000772
G03 X82.288547 Y124.380684 Z-0.125000 I-0.530797 J-0.600787
G01 X82.288547 Y124.380684 Z-0.125000
G00 Z5.000000

(End cutting path id: path250)


(Start cutting path id: path250)
(Change tool to Default tool)

G00 Z5.000000
G00 X82.288547 Y124.380684

G01 Z-0.125000 F100.0(Penetrate)
G03 X82.091049 Y124.353514 Z-0.125000 I0.004020 J-0.760603 F400.000000
G03 X81.888855 Y124.265428 Z-0.125000 I0.205409 J-0.747596
G03 X81.523603 Y123.600751 Z-0.125000 I0.404949 J-0.655222
G03 X81.904807 Y122.969071 Z-0.125000 I0.728795 J0.008947
G03 X82.290492 Y122.866668 Z-0.125000 I0.404226 J0.744943
G03 X82.668242 Y122.952445 Z-0.125000 I0.017456 J0.797789
G03 X82.963659 Y123.226518 Z-0.125000 I-0.329779 J0.651711
G03 X83.074449 Y123.624214 Z-0.125000 I-0.658403 J0.397696
G03 X82.823597 Y124.179802 Z-0.125000 I-0.742398 J-0.000772
G03 X82.288547 Y124.380684 Z-0.125000 I-0.530797 J-0.600787
G01 X82.288547 Y124.380684 Z-0.125000
G00 Z5.000000

(End cutting path id: path250)


(Start cutting path id: path250)
(Change tool to Default tool)

G00 Z5.000000
G00 X83.528932 Y125.248376

G01 Z-0.125000 F100.0(Penetrate)
G03 X83.107446 Y124.967133 Z-0.125000 I0.000000 J-0.456453 F400.000000
G03 X83.200237 Y124.457531 Z-0.125000 I0.440376 J-0.183063
G03 X83.551612 Y124.311119 Z-0.125000 I0.338818 J0.318294
G03 X83.879645 Y124.475954 Z-0.125000 I-0.011674 J0.432056
G03 X83.940859 Y124.983016 Z-0.125000 I-0.386296 J0.303861
G03 X83.528932 Y125.248376 Z-0.125000 I-0.411927 J-0.187045
G01 X83.528932 Y125.248376 Z-0.125000
G00 Z5.000000

(End cutting path id: path250)


(Start cutting path id: path250)
(Change tool to Default tool)

G00 Z5.000000
G00 X83.528932 Y125.248376

G01 Z-0.125000 F100.0(Penetrate)
G03 X83.107446 Y124.967133 Z-0.125000 I0.000000 J-0.456453 F400.000000
G03 X83.200237 Y124.457531 Z-0.125000 I0.440376 J-0.183063
G03 X83.551612 Y124.311119 Z-0.125000 I0.338818 J0.318294
G03 X83.879645 Y124.475954 Z-0.125000 I-0.011674 J0.432056
G03 X83.940859 Y124.983016 Z-0.125000 I-0.386296 J0.303861
G03 X83.528932 Y125.248376 Z-0.125000 I-0.411927 J-0.187045
G01 X83.528932 Y125.248376 Z-0.125000
G00 Z5.000000

(End cutting path id: path250)


(Start cutting path id: path250)
(Change tool to Default tool)

G00 Z5.000000
G00 X84.844835 Y125.522026

G01 Z-0.125000 F100.0(Penetrate)
G03 X84.781798 Y125.511109 Z-0.125000 I-0.004631 J-0.160714 F400.000000
G03 X84.711830 Y125.465409 Z-0.125000 I0.073917 J-0.189578
G03 X84.666761 Y125.371163 Z-0.125000 I0.110948 J-0.110955
G03 X84.689362 Y125.255116 Z-0.125000 I0.199513 J-0.021368
G03 X84.829809 Y125.158681 Z-0.125000 I0.163364 J0.087432
G03 X84.981435 Y125.218719 Z-0.125000 I0.020997 J0.168459
G03 X84.997516 Y125.432903 Z-0.125000 I-0.142667 J0.118407
G03 X84.844835 Y125.522026 Z-0.125000 I-0.157993 J-0.095321
G01 X84.844835 Y125.522026 Z-0.125000
G00 Z5.000000

(End cutting path id: path250)


(Start cutting path id: path250)
(Change tool to Default tool)

G00 Z5.000000
G00 X84.844835 Y125.522026

G01 Z-0.125000 F100.0(Penetrate)
G03 X84.781798 Y125.511109 Z-0.125000 I-0.004631 J-0.160714 F400.000000
G03 X84.711830 Y125.465409 Z-0.125000 I0.073917 J-0.189578
G03 X84.666761 Y125.371163 Z-0.125000 I0.110948 J-0.110955
G03 X84.689362 Y125.255116 Z-0.125000 I0.199513 J-0.021368
G03 X84.829809 Y125.158681 Z-0.125000 I0.163364 J0.087432
G03 X84.981435 Y125.218719 Z-0.125000 I0.020997 J0.168459
G03 X84.997516 Y125.432903 Z-0.125000 I-0.142667 J0.118407
G03 X84.844835 Y125.522026 Z-0.125000 I-0.157993 J-0.095321
G01 X84.844835 Y125.522026 Z-0.125000
G00 Z5.000000

(End cutting path id: path250)


(Start cutting path id: path250)
(Change tool to Default tool)

G00 Z5.000000
G00 X86.566496 Y127.084170

G01 Z-0.125000 F100.0(Penetrate)
G01 X86.771172 Y126.735928 Z-0.125000 F400.000000
G03 X87.321492 Y126.017628 Z-0.125000 I3.202030 J1.883249
G03 X88.466770 Y125.007752 Z-0.125000 I7.545063 J7.402336
G02 X90.097909 Y123.446356 Z-0.125000 I-6.051929 J-7.954942
G02 X90.735507 Y122.281359 Z-0.125000 I-2.657323 J-2.211319
G02 X90.687491 Y121.693237 Z-0.125000 I-0.741536 J-0.235480
G02 X90.099012 Y121.029937 Z-0.125000 I-1.565020 J0.795784
G02 X89.312276 Y120.537684 Z-0.125000 I-8.402791 J12.554825
G02 X89.217399 Y120.515214 Z-0.125000 I-0.084304 J0.144421
G02 X89.116340 Y120.531128 Z-0.125000 I0.034853 J0.550136
G02 X88.421162 Y120.717642 Z-0.125000 I6.827263 J26.835468
G03 X87.724799 Y120.902539 Z-0.125000 I-6.274267 J-22.226516
G03 X86.687145 Y121.149238 Z-0.125000 I-12.246183 J-49.203832
G02 X85.647543 Y121.388289 Z-0.125000 I37.808472 J166.804055
G02 X85.563785 Y121.411429 Z-0.125000 I0.244250 J1.047246
G01 X85.549147 Y121.454818 Z-0.125000
G02 X85.833167 Y121.796966 Z-0.125000 I2.202014 J-1.538951
G03 X86.639119 Y123.182069 Z-0.125000 I-2.324177 J2.279406
G03 X86.660185 Y124.691863 Z-0.125000 I-2.778396 J0.793810
G03 X86.361542 Y125.585056 Z-0.125000 I-6.316663 J-1.615479
G03 X86.259594 Y125.653010 Z-0.125000 I-0.101948 J-0.042498
G03 X86.038471 Y125.557408 Z-0.125000 I-0.000000 J-0.303524
G03 X85.404043 Y124.743089 Z-0.125000 I4.058588 J-3.816301
G03 X84.957296 Y123.360038 Z-0.125000 I2.411574 J-1.542654
G03 X85.240257 Y121.807751 Z-0.125000 I3.367706 J-0.188047
G02 X85.376708 Y121.475988 Z-0.125000 I-6.263955 J-2.770243
G01 X85.372814 Y121.459733 Z-0.125000
G01 X85.355113 Y121.454442 Z-0.125000
G02 X84.419981 Y121.610489 Z-0.125000 I8.848632 J55.906461
G03 X83.480337 Y121.762816 Z-0.125000 I-6.326600 J-36.051957
G03 X82.347158 Y121.918963 Z-0.125000 I-7.811379 J-52.498183
G02 X81.215936 Y122.070280 Z-0.125000 I10.536258 J83.071781
G01 X81.196613 Y122.080727 Z-0.125000
G02 X81.182506 Y122.099436 Z-0.125000 I0.118968 J0.104375
G02 X80.619431 Y122.977617 Z-0.125000 I242.338009 J156.002814
G01 X80.057976 Y123.856983 Z-0.125000
G01 X80.180423 Y124.029081 Z-0.125000
G02 X80.741111 Y124.638840 Z-0.125000 I2.711995 J-1.931084
G02 X81.646181 Y125.270394 Z-0.125000 I3.826339 J-4.519172
G02 X82.537093 Y125.656006 Z-0.125000 I2.233321 J-3.937846
G02 X83.825948 Y125.947105 Z-0.125000 I2.484759 J-8.002589
G03 X85.291260 Y126.316855 Z-0.125000 I-1.039129 J7.206430
G03 X86.224546 Y126.825797 Z-0.125000 I-1.238989 J3.382221
G01 X86.566496 Y127.084170 Z-0.125000
G00 Z5.000000

(End cutting path id: path250)


(Start cutting path id: path250)
(Change tool to Default tool)

G00 Z5.000000
G00 X86.566496 Y127.084170

G01 Z-0.125000 F100.0(Penetrate)
G01 X86.771172 Y126.735928 Z-0.125000 F400.000000
G03 X87.321492 Y126.017628 Z-0.125000 I3.202030 J1.883249
G03 X88.466770 Y125.007752 Z-0.125000 I7.545063 J7.402336
G02 X90.097909 Y123.446356 Z-0.125000 I-6.051929 J-7.954942
G02 X90.735507 Y122.281359 Z-0.125000 I-2.657323 J-2.211319
G02 X90.687491 Y121.693237 Z-0.125000 I-0.741536 J-0.235480
G02 X90.099012 Y121.029937 Z-0.125000 I-1.565020 J0.795784
G02 X89.312276 Y120.537684 Z-0.125000 I-8.402791 J12.554825
G02 X89.217399 Y120.515214 Z-0.125000 I-0.084304 J0.144421
G02 X89.116340 Y120.531128 Z-0.125000 I0.034853 J0.550136
G02 X88.421162 Y120.717642 Z-0.125000 I6.827263 J26.835468
G03 X87.724799 Y120.902539 Z-0.125000 I-6.274267 J-22.226516
G03 X86.687145 Y121.149238 Z-0.125000 I-12.246183 J-49.203832
G02 X85.647543 Y121.388289 Z-0.125000 I37.808472 J166.804055
G02 X85.563785 Y121.411429 Z-0.125000 I0.244250 J1.047246
G01 X85.549147 Y121.454818 Z-0.125000
G02 X85.833167 Y121.796966 Z-0.125000 I2.202014 J-1.538951
G03 X86.639119 Y123.182069 Z-0.125000 I-2.324177 J2.279406
G03 X86.660185 Y124.691863 Z-0.125000 I-2.778396 J0.793810
G03 X86.361542 Y125.585056 Z-0.125000 I-6.316663 J-1.615479
G03 X86.259594 Y125.653010 Z-0.125000 I-0.101948 J-0.042498
G03 X86.038471 Y125.557408 Z-0.125000 I-0.000000 J-0.303524
G03 X85.404043 Y124.743089 Z-0.125000 I4.058588 J-3.816301
G03 X84.957296 Y123.360038 Z-0.125000 I2.411574 J-1.542654
G03 X85.240257 Y121.807751 Z-0.125000 I3.367706 J-0.188047
G02 X85.376708 Y121.475988 Z-0.125000 I-6.263955 J-2.770243
G01 X85.372814 Y121.459733 Z-0.125000
G01 X85.355113 Y121.454442 Z-0.125000
G02 X84.419981 Y121.610489 Z-0.125000 I8.848632 J55.906461
G03 X83.480337 Y121.762816 Z-0.125000 I-6.326600 J-36.051957
G03 X82.347158 Y121.918963 Z-0.125000 I-7.811379 J-52.498183
G02 X81.215936 Y122.070280 Z-0.125000 I10.536258 J83.071781
G01 X81.196613 Y122.080727 Z-0.125000
G02 X81.182506 Y122.099436 Z-0.125000 I0.118968 J0.104375
G02 X80.619431 Y122.977617 Z-0.125000 I242.338009 J156.002814
G01 X80.057976 Y123.856983 Z-0.125000
G01 X80.180423 Y124.029081 Z-0.125000
G02 X80.741111 Y124.638840 Z-0.125000 I2.711995 J-1.931084
G02 X81.646181 Y125.270394 Z-0.125000 I3.826339 J-4.519172
G02 X82.537093 Y125.656006 Z-0.125000 I2.233321 J-3.937846
G02 X83.825948 Y125.947105 Z-0.125000 I2.484759 J-8.002589
G03 X85.291260 Y126.316855 Z-0.125000 I-1.039129 J7.206430
G03 X86.224546 Y126.825797 Z-0.125000 I-1.238989 J3.382221
G01 X86.566496 Y127.084170 Z-0.125000
G00 Z5.000000

(End cutting path id: path250)


(Start cutting path id: path250)
(Change tool to Default tool)

G00 Z5.000000
G00 X86.851829 Y128.599357

G01 Z-0.125000 F100.0(Penetrate)
G01 X87.074479 Y128.189331 Z-0.125000 F400.000000
G03 X87.869503 Y127.097338 Z-0.125000 I4.505172 J2.444579
G03 X89.490376 Y125.655032 Z-0.125000 I9.566340 J9.118786
G02 X90.746895 Y124.618048 Z-0.125000 I-10.890760 J-14.476164
G02 X91.378968 Y123.947975 Z-0.125000 I-3.882803 J-4.295751
G02 X92.106698 Y122.881432 Z-0.125000 I-6.473311 J-5.198455
G02 X92.207108 Y122.504683 Z-0.125000 I-0.656593 J-0.376749
G02 X92.180557 Y122.447431 Z-0.125000 I-0.075000 J-0.000000
G02 X91.817077 Y122.174640 Z-0.125000 I-2.511017 J2.967237
G02 X91.133068 Y121.769005 Z-0.125000 I-4.391072 J6.624990
G01 X91.085096 Y121.788653 Z-0.125000
G02 X91.064506 Y121.868185 Z-0.125000 I0.713886 J0.227255
G02 X91.022863 Y122.098251 Z-0.125000 I5.903404 J1.187340
G03 X90.824230 Y122.710545 Z-0.125000 I-2.071108 J-0.333517
G03 X90.246397 Y123.635456 Z-0.125000 I-5.374444 J-2.714699
G03 X89.637220 Y124.313259 Z-0.125000 I-4.377947 J-3.322044
G03 X88.562930 Y125.221640 Z-0.125000 I-8.979258 J-9.529808
G02 X87.341150 Y126.337728 Z-0.125000 I5.433651 J7.174996
G02 X86.823295 Y127.132474 Z-0.125000 I2.187587 J1.991514
G03 X86.691764 Y127.377326 Z-0.125000 I-1.661786 J-0.734940
G03 X86.639065 Y127.420279 Z-0.125000 I-0.091721 J-0.058727
G03 X86.577272 Y127.412354 Z-0.125000 I-0.023538 J-0.061346
G03 X86.242968 Y127.136743 Z-0.125000 I1.855821 J-2.591577
G02 X85.336911 Y126.555426 Z-0.125000 I-1.988936 J2.103248
G02 X83.854932 Y126.173350 Z-0.125000 I-2.189934 J5.429066
G03 X81.938637 Y125.633821 Z-0.125000 I0.788762 J-6.474427
G03 X80.466205 Y124.628731 Z-0.125000 I2.168758 J-4.758258
G01 X79.909693 Y124.088844 Z-0.125000
G01 X79.583245 Y124.592558 Z-0.125000
G01 X79.257021 Y125.096273 Z-0.125000
G01 X79.474952 Y125.319597 Z-0.125000
G02 X80.432724 Y126.068536 Z-0.125000 I3.264016 J-3.187259
G02 X81.803003 Y126.683580 Z-0.125000 I3.518878 J-6.005872
G02 X82.412319 Y126.843862 Z-0.125000 I1.719780 J-5.299457
G02 X83.392556 Y127.006882 Z-0.125000 I2.762426 J-13.581820
G03 X84.907501 Y127.364738 Z-0.125000 I-0.973158 J7.505373
G03 X86.041888 Y127.929160 Z-0.125000 I-1.648204 J4.734758
G03 X86.501571 Y128.258506 Z-0.125000 I-4.714546 J7.065807
G03 X86.682876 Y128.421641 Z-0.125000 I-0.956775 J1.245650
G01 X86.851829 Y128.599357 Z-0.125000
G00 Z5.000000

(End cutting path id: path250)


(Start cutting path id: path250)
(Change tool to Default tool)

G00 Z5.000000
G00 X86.851829 Y128.599357

G01 Z-0.125000 F100.0(Penetrate)
G01 X87.074479 Y128.189331 Z-0.125000 F400.000000
G03 X87.869503 Y127.097338 Z-0.125000 I4.505172 J2.444579
G03 X89.490376 Y125.655032 Z-0.125000 I9.566340 J9.118786
G02 X90.746895 Y124.618048 Z-0.125000 I-10.890760 J-14.476164
G02 X91.378968 Y123.947975 Z-0.125000 I-3.882803 J-4.295751
G02 X92.106698 Y122.881432 Z-0.125000 I-6.473311 J-5.198455
G02 X92.207108 Y122.504683 Z-0.125000 I-0.656593 J-0.376749
G02 X92.180557 Y122.447431 Z-0.125000 I-0.075000 J-0.000000
G02 X91.817077 Y122.174640 Z-0.125000 I-2.511017 J2.967237
G02 X91.133068 Y121.769005 Z-0.125000 I-4.391072 J6.624990
G01 X91.085096 Y121.788653 Z-0.125000
G02 X91.064506 Y121.868185 Z-0.125000 I0.713886 J0.227255
G02 X91.022863 Y122.098251 Z-0.125000 I5.903404 J1.187340
G03 X90.824230 Y122.710545 Z-0.125000 I-2.071108 J-0.333517
G03 X90.246397 Y123.635456 Z-0.125000 I-5.374444 J-2.714699
G03 X89.637220 Y124.313259 Z-0.125000 I-4.377947 J-3.322044
G03 X88.562930 Y125.221640 Z-0.125000 I-8.979258 J-9.529808
G02 X87.341150 Y126.337728 Z-0.125000 I5.433651 J7.174996
G02 X86.823295 Y127.132474 Z-0.125000 I2.187587 J1.991514
G03 X86.691764 Y127.377326 Z-0.125000 I-1.661786 J-0.734940
G03 X86.639065 Y127.420279 Z-0.125000 I-0.091721 J-0.058727
G03 X86.577272 Y127.412354 Z-0.125000 I-0.023538 J-0.061346
G03 X86.242968 Y127.136743 Z-0.125000 I1.855821 J-2.591577
G02 X85.336911 Y126.555426 Z-0.125000 I-1.988936 J2.103248
G02 X83.854932 Y126.173350 Z-0.125000 I-2.189934 J5.429066
G03 X81.938637 Y125.633821 Z-0.125000 I0.788762 J-6.474427
G03 X80.466205 Y124.628731 Z-0.125000 I2.168758 J-4.758258
G01 X79.909693 Y124.088844 Z-0.125000
G01 X79.583245 Y124.592558 Z-0.125000
G01 X79.257021 Y125.096273 Z-0.125000
G01 X79.474952 Y125.319597 Z-0.125000
G02 X80.432724 Y126.068536 Z-0.125000 I3.264016 J-3.187259
G02 X81.803003 Y126.683580 Z-0.125000 I3.518878 J-6.005872
G02 X82.412319 Y126.843862 Z-0.125000 I1.719780 J-5.299457
G02 X83.392556 Y127.006882 Z-0.125000 I2.762426 J-13.581820
G03 X84.907501 Y127.364738 Z-0.125000 I-0.973158 J7.505373
G03 X86.041888 Y127.929160 Z-0.125000 I-1.648204 J4.734758
G03 X86.501571 Y128.258506 Z-0.125000 I-4.714546 J7.065807
G03 X86.682876 Y128.421641 Z-0.125000 I-0.956775 J1.245650
G01 X86.851829 Y128.599357 Z-0.125000
G00 Z5.000000

(End cutting path id: path250)


(Start cutting path id: path250)
(Change tool to Default tool)

G00 Z5.000000
G00 X87.434403 Y125.097617

G01 Z-0.125000 F100.0(Penetrate)
G03 X87.192316 Y125.018561 Z-0.125000 I-0.072367 J-0.188589 F400.000000
G03 X87.219392 Y124.764429 Z-0.125000 I0.170909 J-0.110299
G03 X87.266176 Y124.740735 Z-0.125000 I0.059562 J0.059574
G03 X87.378461 Y124.740164 Z-0.125000 I0.058070 J0.378395
G03 X87.545717 Y124.905260 Z-0.125000 I-0.028004 J0.195641
G03 X87.434403 Y125.097617 Z-0.125000 I-0.174648 J0.027321
G01 X87.434403 Y125.097617 Z-0.125000
G00 Z5.000000

(End cutting path id: path250)


(Start cutting path id: path250)
(Change tool to Default tool)

G00 Z5.000000
G00 X87.434403 Y125.097617

G01 Z-0.125000 F100.0(Penetrate)
G03 X87.192316 Y125.018561 Z-0.125000 I-0.072367 J-0.188589 F400.000000
G03 X87.219392 Y124.764429 Z-0.125000 I0.170909 J-0.110299
G03 X87.266176 Y124.740735 Z-0.125000 I0.059562 J0.059574
G03 X87.378461 Y124.740164 Z-0.125000 I0.058070 J0.378395
G03 X87.545717 Y124.905260 Z-0.125000 I-0.028004 J0.195641
G03 X87.434403 Y125.097617 Z-0.125000 I-0.174648 J0.027321
G01 X87.434403 Y125.097617 Z-0.125000
G00 Z5.000000

(End cutting path id: path250)


(Start cutting path id: path250)
(Change tool to Default tool)

G00 Z5.000000
G00 X88.304360 Y124.289018

G01 Z-0.125000 F100.0(Penetrate)
G03 X87.858137 Y123.995712 Z-0.125000 I0.000000 J-0.486086 F400.000000
G03 X87.956119 Y123.482896 Z-0.125000 I0.426532 J-0.184273
G03 X88.255652 Y123.352672 Z-0.125000 I0.315047 J0.315060
G03 X88.586773 Y123.460878 Z-0.125000 I0.017655 J0.506712
G03 X88.694187 Y123.602445 Z-0.125000 I-0.217616 J0.276651
G03 X88.739101 Y123.827542 Z-0.125000 I-0.541617 J0.225097
G03 X88.608033 Y124.157872 Z-0.125000 I-0.481799 J0.000000
G03 X88.304360 Y124.289018 Z-0.125000 I-0.303673 J-0.286009
G01 X88.304360 Y124.289018 Z-0.125000
G00 Z5.000000

(End cutting path id: path250)


(Start cutting path id: path250)
(Change tool to Default tool)

G00 Z5.000000
G00 X88.304360 Y124.289018

G01 Z-0.125000 F100.0(Penetrate)
G03 X87.858137 Y123.995712 Z-0.125000 I0.000000 J-0.486086 F400.000000
G03 X87.956119 Y123.482896 Z-0.125000 I0.426532 J-0.184273
G03 X88.255652 Y123.352672 Z-0.125000 I0.315047 J0.315060
G03 X88.586773 Y123.460878 Z-0.125000 I0.017655 J0.506712
G03 X88.694187 Y123.602445 Z-0.125000 I-0.217616 J0.276651
G03 X88.739101 Y123.827542 Z-0.125000 I-0.541617 J0.225097
